/* XPM */
static char *frame_320_color[] = {
/* columns rows colors chars-per-pixel */
"320 200 7 1 ",
"  c black",
". c #555555",
"X c #894036",
"o c #7ABFC7",
"O c #808080",
"+ c gray67",
"@ c white",
/* pixels */
"                                                                                                                                                                                                                                                                                                                                ",
"                                                                                                                                                                                                                                                                                                                                ",
"                                                                                                                                                                                                  ..                                                                                                                            ",
"OO..........OOOO@@  OO........OOOO@@  OO..........OOOO@@  ........OOOO..      OOOOOO      ....OOOOOO@@                                                                                            ..                                                                                                                            ",
"OOOO          @@@@  OO          @@@@  OOOO          @@@@  ..        OO@@@@    ..OO@@    OOOO..    @@@@                                                                                          ..OO..                                                                                                                          ",
"OO      OO......@@  OOOO..........@@  OO      OO......@@  ..OO..........@@@@    @@@@  ..OO..........@@                                                                                            ..                                                                                                                            ",
"      ..@@OO        ..@@OO                  ..@@OO        ..@@OO      ....@@    @@OO  OO....                          @@                                                                          ..                                                                                                                            ",
"      ..@@@@        ..@@@@        OO        ..@@@@        ..@@@@        ..@@  ..@@OO  OO..                                                                                                                                                                                                                                      ",
"      ..@@@@        ..@@@@      OO@@        ..@@@@    ..  ..@@@@      ..OO@@  ..@@OO  ....@@                                                                                                                                                                                                                                    ",
"      ..@@@@        ..OO@@    OOOO@@        ..@@@@    OO  OOOO@@  OOOO..OO    ..@@@@    ....@@@@                                                                                                                                                                                                                                ",
"..    ..@@@@        ....OO  OOOO@@@@        ..@@@@  ..@@..@@..OO@@......      ..@@@@      ....@@@@                                                                                                                                                                                                                              ",
"..    ..@@@@        ..OO@@    ....@@        ..@@@@    OO  OO..OO@@..          ..@@@@          ..@@              OOOOOOOO..............OO..................OO..OOOOOOOOOOOO....OOOOOOOOOO..@@..@@@@@@@@@@@@@@@@@@                                                                                                                ",
"..    ..@@@@        ..@@@@      ..@@        ..@@@@    ..  ..OOOO..OO          ..@@@@          OO@@              OOOOOO  ..++........OO..................OO..OOOOOOOOOOOOOOOOOOOOOOOOOO..OO..OO....OO..OOOOOO@@@@                                                                                                                ",
"..    ..@@@@        ..@@@@        @@        ..@@@@        ..OO@@  ..OO        ..@@@@        OO@@OO              OO  OOOO++........OO..................++..OOOOOOOOOOOOOOOOOOOOOOOOOO..OO..OOOO..OO..OOOOOOOO@@OO        ++++++  ++++++  ++++++  ++++++  ++++++          ++++    ++++     ++        ++    ++                     ",
"..    ..@@@@        ..@@@@                  ..@@@@        ..@@@@  ..@@        ..@@@@        ..@@                OO    ..........OO..................++..OOOOOOOOOOOOOOOOOOOOOOOOOO..OO..OOOOOOOO..OOOOOOOO@@@@OO        @@  @@  @@      @@  @@  @@  @@  @@             ++  ++  ++  ++    ++       +++    ++                     ",
"..    ..@@@@        ..@@......OOOO@@        ..@@@@        ..@@@@  ..OO@@      ..@@@@      ..@@OO                OO    OO......++........++++++++++++++++++++OOOOOO..OO............OO..OOOOOOOOOOOOOOOOOO++@@@@OO        ..      ..      ..  ..  ..  ..  ..             ++ +++  ++ +++   +++      ++++   +++                     ",
"..    ..@@@@        ..          @@@@        ..@@@@        ..@@@@    ..@@..    ..@@@@    ....@@                  ....  ..                                                                                oo@@@@oo          ++    ++      ++  ++  ++++    ++++           +++ ++  +++ ++    ++    ++  ++    ++                     ",
"..    ..  @@        ....++++++++  @@        ..  @@        ..  @@    ..  @@    ..  @@    ..  OO                  ..    ..                                                                                oo@@@@OO            @@  @@      @@  @@  @@  @@  @@             ++  ++  ++  ++    ++    +++++++   ++                     ",
"OO..                                                                                                            ....  ..                                                                                oo@@ooOO        @@  @@  @@      @@  @@  @@  @@  @@             ++  ++  ++  ++    ++        ++    ++                     ",
"OOOO..          ++++++++                                                            ......      ..              ..    ..                                                                                OO@@@@OO        ++++++  ++++++  ++++++  ++  ++  ++++++          ++++    ++++   ++++++      ++  ++++++                   ",
"OO@@..        ++    ++++OO      ++++++        @@++++....            ....OOOO    ............    ..              ..    ..                                                                                OO@@@@OO                                                                                                                ",
"@@@@@@    @@++        ++++OO  ++++..        ++++                  ..      OOOO  ..        ..    OO              @@    ..                                                                                OO@@@@@@                                                                                                                ",
"@@@@@@@@@@@@++        ++@@++@@@@..        @@++                  ..          OO                ..OO..                  ..                                                                                OO@@@@oo        ++      ++++++  ++  ++  ++++++  ++++++                  ++++    ++++    ++++                            ",
"@@@@@@@@@@              @@@@@@++        @@++              ..OOOO            OOOO            ..OO++OO..          ..    ..                                                                                OO@@@@oo        @@        @@    @@  @@  @@      @@  @@                 ++  ++  ++  ++  ++  ++                           ",
"@@@@    OOOO        OO  ++@@++..      ..@@            ++OOOOOO                OO              ..OO..            ..    ++                                                                                OO@@@@OO        XX        ..    ......  ..      ..                     ++ +++  ++ +++      ++                           ",
"@@        OOOOOOOOOO      @@..        @@++          ++++          ....      OOOO                OO              ..    ++                                                                                OO@@@@OO        ++        ++    ++++++  ++++      ++                   +++ ++  +++ ++    +++                            ",
"++            OOOO        @@          @@          ++++              ..      OO                  ..                    ++                                                                                OO@@@@@@        @@        @@    @@@@@@  @@          @@                 ++  ++  ++  ++      ++                           ",
"++                        @@..      ..@@          ++                  ..  OOOO                  ..              ..    ++                                                                                OO@@@@@@        @@  @@    @@    @@  @@  @@      @@  @@                 ++  ++  ++  ++  ++  ++                           ",
"++..          ....        ++@@..    ..@@        ++++                  ....OO                                    ..    ++                                                                                OO@@@@@@        ++++++  ++++++  ++  ++  ++++++  ++++++                  ++++    ++++    ++++                            ",
"@@++..  ......  ....        @@@@......@@        ++                                                              ..  ....                                                                                OO@@@@@@                                                                                                                ",
"@@++......        ....        @@@@..@@@@++      @@                                                              ........                                                                                OO@@@@@@                                                                                                                ",
"@@@@++..              ..        @@@@@@@@++    ++@@          ..OOOOOO                                            ++....@@                                                                                OO@@@@@@          ++                                                                                                    ",
"++@@++....                    ..@@@@  @@@@....@@    ..    OOOOOO....OO....  ....                    ..          OO....++                                                                                OO@@@@@@                                                                                                                ",
"..@@@@++..                  ..@@        @@..@@@@      ..OOOO          ........                      ..          OO....++                                                                                OO@@@@@@                                                                                                                ",
"  ..++++..          ..      @@            @@                                                        OO      ..  ++....++                                                                                OO@@@@@@                                                                                                                ",
"    ..@@@@++        ..    ..@@                                                  ..                ..@@..  ..    ++OO..++                                                                                OO@@@@@@                                                                                                                ",
"  ......@@@@++      ..    ..@@    ..    ......                          ..OO..  ..              ..OO@@OO..  ..  ++....++                                                                                OO@@@@@@                                                                                                                ",
"  ....  ..@@@@    ....      ..++    ..    ..@@OO              OOOO      OO  OO..                  ..@@..  ..    OOOO..++                                                                                OO@@@@@@                                                                                                                ",
"  ....    ....  ....        ..++    ....    OO@@OO        ..OO@@@@OO  OO..                          OO      ..  ......++                                                                                OO@@@@@@                                                                                                                ",
"  ..        ++++++            ++++    ++OO    OO@@..    ....@@OOOO@@OO..                            ..    ..    OO....++                                                                                OO@@@@@@                                                                                                                ",
"  ..        ..@@@@++          ..++++    ++..    OOOO....OO@@OO    OO@@          ..                  ..      ..  ......@@                                                                                OO@@@@@@                                ................................                                                ",
"  ..          ..@@++    ....    ..++      ++..    ..OOOOOO          @@          ..                ..            OO....@@                                                                                OO@@@@@@                                ................................                                        ..  ..  ",
"  ..            @@@@++    ..      ..++    ....                      OO        ..OO..            ..  ..          ......@@                                                                                OO@@@@@@                                ................................                                            ..  ",
"  ....          ..@@++    ....      ..++      ++                    OO          ..          ........            ......@@                                                                                OO@@@@@@                                ................................                                      ..        ",
"    ....          @@++      ..        ..      ++    ..              ..          ..          ....    ..          ......@@                                                                                OO@@@@@@                                ................................                                          ....  ",
"      ....        @@..      ..        ..    ..++    ....            ....                  ..                    ......@@                                                                                OO@@@@@@                                ................................                                        ......  ",
"            ..  @@@@..      ..      ..      ....      ....            ..                    ..              ..  ......@@                                                                                OO@@@@@@                                ................................                                      ........  ",
"              ..@@++..              ..    ....          ..              ..                                  ..  ......@@                                                                                OO@@@@@@                                ................................                                          ....  ",
"              @@++..              ..      ..            ....            ..  ..                              OO  ....  @@                                                                                OO@@@@@@                                                                                                      ..  ....  ",
"          ++  ++....        ..            ..              ......              ..                                ....  @@                                                                                OO@@@@@@                                                                                                    ..  ......  ",
"          @@    ..        ....            ..                                    ++                          OO  ....  @@                                                                                OO@@@@@@                                                                                                      ....  ..  ",
"          @@      ..    ..  ..              ..                                  ..++..                      OO  ....  @@                                                                                OO@@@@@@    ..      ..                                                                                      ..    ..    ",
"          @@++      ....    ..                                        ..          ..++..                    OO  ....  @@                                                                                OO@@@@@@    ....  ..                                                                                      ..  ..        ",
"            @@                OO                                        ..          ..++....                OO  ..    @@                                                                                OO@@@@@@  ........OO..                                                                                      ..  ..  ..  ",
"            @@++              OOOO                                        ..            ......        ....  OO  ....  @@                                                                                OO@@@@@@  ..  ..  ..                                                                                      ..            ",
"              @@++++            OO..                                      ....            ....      ....OOOO@@  ..    @@                                                                                OO@@@@@@    ....OO                                                                                            ..        ",
"                  ....          ..OO                                        ..            ....    ..++OO..@@@@  ..    @@                                                                                OO@@@@@@  ......                                                                                        ..              ",
"                    ..            OO                                        ..              ......++..    ..@@  ..    @@                                                                                OO@@@@@@  ..OO....                                                                                                      ",
"                    ..            OOOO                                      ..              ....  ..        @@  ..    @@                                                                                OO@@@@@@  ..  ..                                                                                                        ",
"                    ..            ..OO                                    ....                              @@  ....  @@                                                                                OO@@@@@@  ....  ..                                                                                        OO            ",
"                  ..              OO                                      ..                                OO  ..    @@                                                                                OO@@@@@@  ........                                                                                                      ",
"              ..  ..            ..OO                                    ....                              ..OO  ..    @@                                                                                OO@@@@@@    ..                                                                                                          ",
"                ..              OOOO                              ..  ....                          OO....  OO  ..    @@                                                                                OO@@@@@@  ..  ..                                                                                                        ",
"                                OO                                ......                          OO..OO....OO  ..    @@                                                                                OO@@@@@@    ..                                                                                                          ",
"                              ..                                                                ....OO      ..  ..    @@                                                                                OO@@@@@@  ..                                                                                                            ",
"                            ..                                                                ..OO..  ....  ..  ..    @@                                                                                OO@@@@@@                                                                                                            ..  ",
"                                                                                          ..    ..  ..      ..  ..    @@                                                                                OO@@@@@@                                                                                                          ..    ",
"                                                                                    ..        ......        ..  ..    @@                                                                                OO@@@@@@                                                                                                            ..  ",
"                                                                                            ......          ..  ..    @@                                                                                OO@@@@@@                                                                                                                ",
"                                                                                          ......            ..  ..    @@                                                                                OO@@@@@@                                                                                                      ..  ..    ",
"                                                                              ..  ..  ..    ..    ..            ..  ..@@                                                                                OO@@@@@@                                                                                                                ",
"                ..  ..                                                  ..                ..                    ....  @@                                                                                OO@@@@@@                                                                                                                ",
"                  ..                                                      ..        ..  ..  ..                  ......@@                                                                                OO@@@@@@                                                                                                    ..          ",
"            ..  ..                                          ..          ..        ..  ..  ..  ....    ..    ..  ....  @@                                                                                OO@@@@@@                          ..                                                                                    ",
"      ..  ..  ..                                                          ..    ..  ..  ......            ..    ..    @@                                                                                OO@@@@@@                                                        ..                                                      ",
"    ..  ..  ..                                                      ..        ..  ..  OO..OO++..        ..  ..  ....  @@                                                                                OO@@@@@@                      ..                              ..                                                        ",
"  ..  ..  ..  ..                                                      ..        ....OO..OO++++    ..      ..    ....  @@                                                                                OO@@@@@@                  ..                                                                                            ",
"..  ..  ..  ..                                                      ..    ..  ..OOOO..++++++                ..  ......@@                                                                                OO@@@@@@                                                ..  ..                                                          ",
"  ..OO..  ..                                                                OOOOOO..OO++++++OO..                ..    @@                                                                                OO@@@@@@      ..    ..  ..  ..                        ......                                                            ",
"..OO..OO..                                                                  ......OO++++++OO                ..  ..    @@                                                                                OO@@@@@@  ..          ..  ..                            ..                                                              ",
"OO..OO..                  ..                                      ....    ..  ..  ..++++OO  ..  ..    ..        ..    @@                                                                                OO@@@@@@        ..  ..  ..                            ..OO..                  ..                                        ",
"..OO..                                                          ..      ..    ..    ..++  OO  ..            ..  ..    @@                                                                                OO@@@@@@  ..      ..  ......                        ......                                                              ",
"OO..OO..                                                                ..    ..    ..  OO  ..            ....  ..    @@                                                                                OO@@@@@@    ..  ..  ......                        ..  ..                                                                ",
"..OO..                                                  ..  ..    ..          OO      OO  ..  ..  ..    ..  ..  ..    @@                                                                                OO@@@@@@    ....  ......                            ..  ..                                                              ",
"OO..  ..                                                      ..      ..      OO      ....  ..        OOOO..OO  ..    @@                                                                                OO@@@@@@  ..  ........  ..                        ..  ..                                                                ",
"..OO..                                                              ..        OO          ..          OO++OO..  ..    @@                                                                                OO@@@@@@  ....  ..OO  ..                        ..  ..                                                                  ",
"OO..                                                            ..    ..    ..@@..    ....        ..OOOO++..    ..    @@                                                                                OO@@@@@@  ..  ..OO....                                                                                                  ",
"..  ..                                                  ..  ..    ..  ..    OO@@OO    ..              ++++OO..  ..    @@                                                                                OO@@@@@@  ......OOOO                          ..                                                                        ",
"OO..                                                      ..  ..    ......OO@@@@++OO....              ++OO..    ..    @@                                                                                OO@@@@@@  ..OO..OO....        oo                                                                                        ",
"..                                                      ..  ..    ..OO..    OO@@OO    ..          ....OO..  ..  ..    @@                                                                                OO@@@@@@  OOOO..OO..  ..                                                                                                ",
"  ..                                              ..      ..OO  ..OOOO..    ..@@..    ..        ..  OO..  ..    ..    @@                                                                                OO@@@@@@  OO......  ..                                                                                                  ",
"..                                              ..    ..OOOO..    ..OO..      OO              ..  ....OO..      ..    @@                                                                                OO@@@@@@  OOOO......                                                                                                    ",
"  ..                                          ..  ..    OO..      ......      OO      ....        ..OO..        ..    @@                                                                                OO@@@@@@  OO..........                                      ..  ..                                                      ",
"..                                              ..  ..OO..      ....  ..      OO      ..        ..  ....        ..    @@                                                                                OO@@@@@@  ..OO......                                                                                                    ",
"                                              ..  ..  OO..      ....          ..    ..++..  ..      ..          ..    @@                                                                                OO@@@@@@  OO....  ..                                                                                                    ",
"..                                              ..  ....      ....        ..  ..    ..++++      ....  ..        ..    @@                                                                                OO@@@@@@  ..OO  ..                                    ..  ..                                                            ",
"                                              ..  ..OO..        ..            ..  ..++++....  ....  ..  ..      ..    @@                                                                                OO@@@@@@  OO..      ..                            ..                                                                    ",
"..                                              ..  OO..      ..              ....++..++..  ..    ..OO..        ..    @@                                                                                OO@@@@@@  OO....            ..                        ..                                                                ",
"                                                  ......    ....            ..  ........++..  ..  OOOOOO  ..    ..    @@                                                                                OO@@@@@@  ..            ..                      ..  ..  ..                                                              ",
"                                                ..  ....    ..                ..  ....++..  ..    ..OO..        ..    @@                                                                                OO@@@@@@  ....            ....        ++....  OO  ......                                                                ",
"                                                  ....    ....              ..  ........  ..  ..OOOOOO  ..  ..  ....  @@                                                                                OO@@@@@@  ..  ..      ......        ..  ..  ..  ......                                                                  ",
"                                              ..  ..      ..              ..        ..  ..OO..    ..OO..    OO  ..OO..@@                                                                                OO@@@@@@  ....          ..              ..    OO....OO..                                                                ",
"                                                ....                              ..  ..OO..        ..    ....  OOOO  @@                                                                                OO@@@@@@  ..        ........      ..    ..    OO......                                                                  ",
"                                            ..  ..                              ..  ..  ..OO..  ..    ......OO  ..OO  @@                                                                                OO@@@@@@  ..          ....              ++      ....  ..                                                                ",
"                                              ....                    ..          ..  ..OO..  ..  ..    ..OOOO  OOOO..@@                                                                                OO@@@@@@          ....++        ..      ++      ......                                                                  ",
"                                          ..              ..                  ..    ..OO..........  ....  ..OO  ..OO  @@                                                                                OO@@@@@@  ..        ..          ..    ..@@..    ....                                                                    ",
"                                        ..  ..            ..                          ..  ....    ..    ....OO  ..OO..@@                                                                                OO@@@@@@          ..        ..OO..  ..++@@++..  ..                                                                      ",
"                                                        ..OO..                  ..  ......  ....      ..  ..OO  OOOO..@@                                                                                OO@@@@@@            ..      ..OO  ..++OO@@@@++@@  ..                                                                    ",
"                          ..                              ..                          ......    ..        OO..  OOOO  @@                                                                                OO@@@@@@          ..      ..OOOO..  ..++@@++..  ..                                                                      ",
"                                                          ..                  ..  ......    ..    ..    ....OO  OOOO..@@                                                                                OO@@@@@@                ....OO....    ..@@..    ..                                                                      ",
"                                                                                ....    ..                OOOO  OOOO  @@                                                                                OO@@@@@@                  ..OOOO++      ++      ..                                                                      ",
"                                                                                ..  ..        ..      ..  ..OO  ..OO..@@                                                                                OO@@@@@@              ++..OOOO..++      ++                                                        ....                  ",
"                                                                              ..++..  ..                    ..  ..OO  @@                                                                                OO@@@@@@                  ..OO..++..    ++    OO                                                ..                      ",
"                                                                              ..++..          ....          ..  ....  @@                                                                                OO@@@@@@                ..OO....++++    ..                                                    ..                        ",
"                                                                            ....@@....  ..      ..  ..    ..    ..    @@                                                                                OO@@@@@@              OO  ..OOOO..++..  ..  ..                                              ....                        ",
"                                                                            ..++@@++        ....  ..    ..  ..  ....  @@                                                                                OO@@@@@@                ..  ..OO..OO++OO....                                                ..                          ",
"                                                                            ++@@@@@@++          ........  ....  ..    @@                                                                                OO@@@@@@                  ..OOOO..++OO++OOOO                                              ....                          ",
"                                                                          ....++@@++....  ..  ..    ..  ..  ..  ..    @@                                                                                OO@@@@@@                  ....OO..OO....                                                  ..                            ",
"                                                                        ......  @@....        ..    ....  ....  ..    @@                                                                                OO@@@@@@                ......OO....OO                                                    ..                            ",
"                                                                      ......    ++......      ..      ....  ..  ..    @@                                                                                OO@@@@@@                ..  ..OO..OO....                                                  ..                            ",
"                                              ..                        ..    ..++..        ..OO..    ......    OO    @@                                                                                OO@@@@@@              ..  ......OOOOOO                                                    ....                          ",
"                                                                    ......      ....        ..OO..      ..  ..  OO    @@                                                                                OO@@@@@@                ..  ....OOOO..                                                      ..                          ",
"                                                                      ..    ......        ....@@....    ....    OO..  @@                                                                                OO@@@@@@              ......  ..OOOO                                                        ....                        ",
"                                                                    ......    ..          ..OO@@OO..    ..  ..  @@..  @@                                                                                OO@@@@@@                ..  ......                                                            ..                        ",
"                                                                  ....      ......      ..OOOO@@OOOO..  ..      @@OO..@@                                                                                OO@@@@@@            ......    ..                                    ..                        ..                        ",
"                              ..                                    ....    ..        ..OOOO@@@@@@OOOO....      @@OO..@@                                                                                OO@@@@@@              ..    ......                                ......                                                ",
"                                                                  ....    ..            ..OOOO@@OOOO..          @@..  @@                                                                                OO@@@@@@  ++        ....      ..                                    ..                                                  ",
"                                                                  ..                      ..OO@@OO..            OO..  @@                                                                                OO@@@@@@            ..        ....                                                                                      ",
"                                                                ..        ..              ....@@....            OO    @@                                                                                OO@@@@@@          ....        ..                                                                  ..                    ",
"                                                                ..                          ..OO..              OO    @@                                                                                OO@@@@@@  ++                    ..                                                              ....                    ",
"                                                                                            ..OO..              ..    @@                                                                                OO@@@@@@  ++                ....                                                                ..          ..          ",
"                              ..                            ..          ..                    ..    ..          ..    @@                                                                                OO@@@@@@                  ....                                                                  ..          ..          ",
"                                                                                              ..                ..    @@                                                                                OO@@@@@@  ++                ..                                          ..                    ....          ..          ",
"                                                                                              ....              ..    @@                                                                                OO@@@@@@  ++            ..                                            ......                  ..            ..          ",
"                                                                                              ..                ..    @@                                                                                OO@@@@@@  ..                                        ....              XX  ..                ..@@    ..      ..          ",
"                                                    ..                                        ..                ..    @@                                                                                OO@@@@@@  ..          ..                ..        ..  ....          ....                    @@..          ....          ",
"                                                                                            ......              ..    @@                                                                                OO@@@@@@  @@                            ..      ..      ..          OO                    ..@@      ..    ..            ",
"                                                ..                                            ..                ..    @@                                                                                OO@@@@@@  @@++                            ..    ..        ..      ..OO                    @@@@      ..OO....            ",
"            ..                                  ..                                          ..  ..              ..    @@                                                                                OO@@@@@@  @@++                      ..    ..  ..                  ..OO                    @@..        OO..              ",
"                                              ..                                                                ..    @@                                                                                OO@@@@@@  @@@@                      ..      ....              ..  ..OO                    @@                            ",
"                                        ..  ....                                              ..                ..    @@                                                                                OO@@@@@@  ..@@@@                    OO                              OO..                  @@OO                          ",
"                                          ....                                                            ..    ..    @@                                                                                OO@@@@@@  ..  ++                  ..OO..                            ..OO                  @@OO                          ",
"                                      ..  ..                                                                    ..    @@                                                                                OO@@@@@@  ..  @@..                  ..                                ....                @@@@                          ",
"                                        ....                                                                    ..    @@                                                                                OO@@@@@@  ..    ..                  ..                  ..              ..                  @@@@                        ",
"                                      ....                                                                      ..    @@                                                                                OO@@@@@@  ++    ..                            ..          ..++oo                            OOOO                        ",
"                                    ..  ....                                                                    ..    @@                                                                                OO@@@@@@  ++      ..                      ..                  ....                          OOOO                        ",
"                                  ..  ....                                                                      ..    @@                                                                                OO@@@@@@  ..      ..                    ..                    oo@@..                          OO                        ",
"                                    ....  ..                                                                    ..    @@                                                                                OO@@@@@@  ..        ..                  ..                      @@@@  ++..                    OOOO            OOOOOOOO  ",
"                                ......  ..                                                                      ..    @@                                                                                OO@@@@@@  ..          ....            ..                        ..@@  ++++..                  OOOO            OO@@@@@@  ",
"                                  ......                                                                        ..    @@                                                                                OO@@@@@@  ..              ..          ..                          @@..@@..++..                  OO          OO@@@@OO@@  ",
"                              ........  ..                                                          ..          ..    @@                                                                                OO@@@@@@  ++                ..        ....          ....          ++++@@  ..++                  OOOO        @@@@OOOOOO  ",
"                                ....                                                                            ..    @@                                                                                OO@@@@@@          ..        ......      ..        ..........      ..@@++    ++....                  OO    OO@@OO        ",
"                                ..    ..                                                                        ..    @@                                                                                OO@@@@@@          ..    OO..    ..      ....  ......    ........    @@@@    ..XX..  ..++..                OO@@          ",
"                              ..  ..                                                          ..                ..    @@                                                                                OO@@@@@@          ....OOOO      ..        ........          ......  @@          ......++....              @@            ",
"                                ..  ..                                                          ..              ..    @@                                                                                OO@@@@@@            OOOO                    ....                    @@              ..++  ..              @@            ",
"                            ....                                                            ..                  ..    @@                                                                                OO@@@@@@                        ..        ....                    @@@@                ++    ..OO....      @@            ",
"                          ..                                                              ..OO..                ..    @@                                                                                OO@@@@@@                        OO      ..OO..                  OO@@OO                ++..        ....oo    @@          ",
"                        ..  ..                                                          ..OO..                  ..    @@                                                                                OO@@@@@@                        OO..    ..OO..              OOOO@@@@                    ..            oo..              ",
"                          ..                                                              ..                    ..    @@                                                                                OO@@@@@@                        ..OO  OOOO..              OO@@@@@@@@                    ....            ..      ....    ",
"                                                                                      ..                        ..    @@                                                                                OO@@@@@@                          OOOO......            OO@@    @@@@@@          ......++  ....          ....  OOOOOO..  ",
"                                                                                        ..                      ..    @@                                                                                OO@@@@@@                          ..OO..              ..@@        OO@@@@      OO..@@@@@@......              ..OO@@@@OO  ",
"                      ..                                                              ..                        ..    @@                                                                                OO@@@@@@                        ..                    ..@@          OO@@    ..OO@@@@@@@@@@@@..          ....OO@@@@@@OO  ",
"                    ..                                                            ..                            ..    @@                                                                                OO@@@@@@              ..      ..                ..    ..@@@@          @@@@..OO@@++++++++++@@@@..    ......OO@@@@OO@@@@  ",
"                                                                                                                ..    @@                                                                                OO@@@@@@              ..      ..                        OO@@          OO@@OO@@..          ++++@@OO......@@@@@@OO  OO@@  ",
"                    ..                                                                                          ..    @@                                                                                OO@@@@@@            ..XX..    ..                ..        OO@@          OO@@..              ..@@OO......OO@@OO    OO@@  ",
"                  ..                                                                                            ..    @@                                                                                OO@@@@@@              ..    ..                  ....        OOOO          @@                  ++@@........OO      OO@@  ",
"                  ..                                                                                            ..    @@                                                                                OO@@@@@@                    ..                    OO..        OO          ..                    OOOOOOOO....        OO  ",
"                ..                                                                                              ..    @@                                                                                OO@@@@@@                    ..                    ..OOoo..OOOO..          ..                      ....  ....        OO  ",
"                                                                                                                @@    ++                                                                                OO@@@@@@                                            ..OOOO..              ....          ....            ..              ",
"                  ..                                              OO                                            @@    ++                                                                                OO@@@@@@                    ..                      ..                      ..        oo  ..OO        ....          OO  ",
"              ....                                                                                              ++    @@                                                                                OO@@@@@@                                          ..                        ....    ..      @@        ..          OO@@  ",
"                                                                                                                ++    @@                                                                                OO@@@@@@                                  ..      ..                          ..              @@    ....OOOOOO  OOOO@@  ",
"            ..                                                                                                  ++    @@                                                                                OO@@@@@@                                        ..                                            @@OO  OOOO@@@@OOOOOO@@@@  ",
"              ..                                                                                                ++    @@                                                                                OO@@@@@@                                      XX                                ..              @@OOOO@@@@@@@@OOOO@@@@  ",
"            ..                                                                ..                                ++  ..@@                                                                                OO@@++@@                                                    OO              ..                  @@@@@@@@    @@@@@@@@@@  ",
"          ..                                                                                                    ++....@@                                                                                OO++++@@                                                    OO            ....                    @@@@        @@@@@@@@  ",
"                                                                          ..                                    ++@@  @@                                                                                OO++++@@                                                    OOoo          ..      ..          @@              OO@@@@@@  ",
"          ..                                                          ..                                        ++    @@                                                                                OO++++@@                                                      ooOO      ....      ..        ..@@                @@@@@@  ",
"                                                                        ....                                    ++    @@                                                                                OOOO++@@                                                        OOOO......        ....  ......                      @@  ",
"                                                                      ..                                        ++    @@                                                                                OO  OO@@                                                          OOOO              ....                                ",
"          ..                                                        ..  ..                                      ++    @@                                                                                OO  OO@@                                                                                                                ",
"                                                                      ..                                        ++    @@                                                                                OO  OO@@                                                                                                                ",
"                                                                    ..                                          ++    @@                                                                                OO    @@          OO..........OOOO@@  OO........OOOO@@  OO..........OOOO@@  ........OOOO..      OOOOOO      ....OOOOOO@@",
"        ..  ..                                                                                                  ++    @@                                                                                OO    @@          OOOO          @@@@  OO          @@@@  OOOO          @@@@  ..        OO@@@@    ..OO@@    OOOO..    @@@@",
"          ..  ..                                                                                                ++    ........oo@@................................................OOOOOO++++++++OOOOOOOOOO    @@          OO      OO......@@  OOOO..........@@  OO      OO......@@  ..OO..........@@@@    @@@@  ..OO..........@@",
"    ....    ..                                                                                                  ++            ooOO..                                                        ..                @@                ..@@OO        ..@@OO                  ..@@OO        ..@@OO      ....@@    @@OO  OO....          ",
"        ....  ....                                                                                              ++            oo@@OO..                                  OO                ....                @@                ..@@@@        ..@@@@        OO        ..@@@@        ..@@@@        ..@@  ..@@OO  OO..            ",
"....  ..        ....  ..  ..                                                                                    ++            ..@@@@OO..                            ....OO..OO          ......OO              @@                ..@@@@        ..@@@@      OO@@        ..@@@@    ..  ..@@@@      ..OO@@  ..@@OO  ....@@          ",
"    ..                                                                                                          ++..................................................XX....OOOOOOOO......................@@@@@@@@                ..@@@@        ..OO@@    OOOO@@        ..@@@@    OO  OOOO@@  OOOO..OO    ..@@@@    ....@@@@      ",
"    ++++++++  ++++  ++++++++                                                                                                                                                                                                    ..@@@@        ....OO  OOOO@@@@        ..@@@@  ..@@..@@..OO@@......      ..@@@@      ....@@@@    ",
"    OOOO      OOOO    OOOO                                                                                                                                                                                                      ..@@@@        ..OO@@    ....@@        ..@@@@    OO  OO..OO@@..          ..@@@@          ..@@    ",
"    OOOOOOOO  OOOO    OOOO                                                                                                                                                                                                      ..@@@@        ..@@@@      ..@@        ..@@@@    ..  ..OOOO..OO          ..@@@@          OO@@    ",
"        ....  ....    ....                                                                                                                                                                                                      ..@@@@        ..@@@@        @@        ..@@@@        ..OO@@  ..OO        ..@@@@        OO@@OO    ",
"    ........  ....    ....                                                                                                                                                                                                      ..@@@@        ..@@@@                  ..@@@@        ..@@@@  ..@@        ..@@@@        ..@@      ",
"                                                                                                                                                                                                                                ..@@@@        ..@@......OOOO@@        ..@@@@        ..@@@@  ..OO@@      ..@@@@      ..@@OO      ",
"                                                                                                                                                                                                                                ..@@@@        ..          @@@@        ..@@@@        ..@@@@    ..@@      ..@@@@      ..@@        ",
"                                                                                                                                                                                                                                ..  @@        ............  @@        ..  @@        ..  @@    ..  @@    ..  @@    OO  OO        ",
"                                                                                                                                                                                                                                                                                                                                ",
"                                                                                                                                                                                                                                                                                                                                ",
"                                                                                                                                                                                                                                                                                                                                "
};
