/* XPM */
static char *frame_320_mono[] = {
/* columns rows colors chars-per-pixel */
"320 200 5 1 ",
"  c black",
". c #555555",
"X c #808080",
"o c gray67",
"O c white",
/* pixels */
"                                                                                                                                                                                                                                                                                                                                ",
"                                                                                                                                                                                                                                                                                                                                ",
"                                                                                                                                                                                                  ..                                                                                                                            ",
"XX..........XXXXOO  XX........XXXXOO  XX..........XXXXOO  ........XXXX..      XXXXXX      ....XXXXXXOO                                                                                            ..                                                                                                                            ",
"XXXX          OOOO  XX          OOOO  XXXX          OOOO  ..        XXOOOO    ..XXOO    XXXX..    OOOO                                                                                          ..XX..                                                                                                                          ",
"XX      XX......OO  XXXX..........OO  XX      XX......OO  ..XX..........OOOO    OOOO  ..XX..........OO                                                                                            ..                                                                                                                            ",
"      ..OOXX        ..OOXX                  ..OOXX        ..OOXX      ....OO    OOXX  XX....                          OO                                                                          ..                                                                                                                            ",
"      ..OOOO        ..OOOO        XX        ..OOOO        ..OOOO        ..OO  ..OOXX  XX..                                                                                                                                                                                                                                      ",
"      ..OOOO        ..OOOO      XXOO        ..OOOO    ..  ..OOOO      ..XXOO  ..OOXX  ....OO                                                                                                                                                                                                                                    ",
"      ..OOOO        ..XXOO    XXXXOO        ..OOOO    XX  XXXXOO  XXXX..XX    ..OOOO    ....OOOO                                                                                                                                                                                                                                ",
"..    ..OOOO        ....XX  XXXXOOOO        ..OOOO  ..OO..OO..XXOO......      ..OOOO      ....OOOO                                                                                                                                                                                                                              ",
"..    ..OOOO        ..XXOO    ....OO        ..OOOO    XX  XX..XXOO..          ..OOOO          ..OO              XXXXXXXX..............XX..................XX..XXXXXXXXXXXX....XXXXXXXXXX..OO..OOOOOOOOOOOOOOOOOO                                                                                                                ",
"..    ..OOOO        ..OOOO      ..OO        ..OOOO    ..  ..XXXX..XX          ..OOOO          XXOO              XXXXXX  ..oo........XX..................XX..XXXXXXXXXXXXXXXXXXXXXXXXXX..XX..XX....XX..XXXXXXOOOO                                                                                                                ",
"..    ..OOOO        ..OOOO        OO        ..OOOO        ..XXOO  ..XX        ..OOOO        XXOOXX              XX  XXXXoo........XX..................oo..XXXXXXXXXXXXXXXXXXXXXXXXXX..XX..XXXX..XX..XXXXXXXXOOXX        oooooo  oooooo  oooooo  oooooo  oooooo          oooo    oooo     oo        oo    oo                     ",
"..    ..OOOO        ..OOOO                  ..OOOO        ..OOOO  ..OO        ..OOOO        ..OO                XX    ..........XX..................oo..XXXXXXXXXXXXXXXXXXXXXXXXXX..XX..XXXXXXXX..XXXXXXXXOOOOXX        OO  OO  OO      OO  OO  OO  OO  OO             oo  oo  oo  oo    oo       ooo    oo                     ",
"..    ..OOOO        ..OO......XXXXOO        ..OOOO        ..OOOO  ..XXOO      ..OOOO      ..OOXX                XX    XX......oo........ooooooooooooooooooooXXXXXX..XX............XX..XXXXXXXXXXXXXXXXXXooOOOOXX        ..      ..      ..  ..  ..  ..  ..             oo ooo  oo ooo   ooo      oooo   ooo                     ",
"..    ..OOOO        ..          OOOO        ..OOOO        ..OOOO    ..OO..    ..OOOO    ....OO                  ....  ..                                                                                ooOOOOoo          oo    oo      oo  oo  oooo    oooo           ooo oo  ooo oo    oo    oo  oo    oo                     ",
"..    ..  OO        ....oooooooo  OO        ..  OO        ..  OO    ..  OO    ..  OO    ..  XX                  ..    ..                                                                                ooOOOOXX            OO  OO      OO  OO  OO  OO  OO             oo  oo  oo  oo    oo    ooooooo   oo                     ",
"XX..                                                                                                            ....  ..                                                                                ooOOooXX        OO  OO  OO      OO  OO  OO  OO  OO             oo  oo  oo  oo    oo        oo    oo                     ",
"XXXX..          oooooooo                                                            ......      ..              ..    ..                                                                                XXOOOOXX        oooooo  oooooo  oooooo  oo  oo  oooooo          oooo    oooo   oooooo      oo  oooooo                   ",
"XXOO..        oo    ooooXX      oooooo        OOoooo....            ....XXXX    ............    ..              ..    ..                                                                                XXOOOOXX                                                                                                                ",
"OOOOOO    OOoo        ooooXX  oooo..        oooo                  ..      XXXX  ..        ..    XX              OO    ..                                                                                XXOOOOOO                                                                                                                ",
"OOOOOOOOOOOOoo        ooOOooOOOO..        OOoo                  ..          XX                ..XX..                  ..                                                                                XXOOOOoo        oo      oooooo  oo  oo  oooooo  oooooo                  oooo    oooo    oooo                            ",
"OOOOOOOOOO              OOOOOOoo        OOoo              ..XXXX            XXXX            ..XXooXX..          ..    ..                                                                                XXOOOOoo        OO        OO    OO  OO  OO      OO  OO                 oo  oo  oo  oo  oo  oo                           ",
"OOOO    XXXX        XX  ooOOoo..      ..OO            ooXXXXXX                XX              ..XX..            ..    oo                                                                                XXOOOOXX        ..        ..    ......  ..      ..                     oo ooo  oo ooo      oo                           ",
"OO        XXXXXXXXXX      OO..        OOoo          oooo          ....      XXXX                XX              ..    oo                                                                                XXOOOOXX        oo        oo    oooooo  oooo      oo                   ooo oo  ooo oo    ooo                            ",
"oo            XXXX        OO          OO          oooo              ..      XX                  ..                    oo                                                                                XXOOOOOO        OO        OO    OOOOOO  OO          OO                 oo  oo  oo  oo      oo                           ",
"oo                        OO..      ..OO          oo                  ..  XXXX                  ..              ..    oo                                                                                XXOOOOOO        OO  OO    OO    OO  OO  OO      OO  OO                 oo  oo  oo  oo  oo  oo                           ",
"oo..          ....        ooOO..    ..OO        oooo                  ....XX                                    ..    oo                                                                                XXOOOOOO        oooooo  oooooo  oo  oo  oooooo  oooooo                  oooo    oooo    oooo                            ",
"OOoo..  ......  ....        OOOO......OO        oo                                                              ..  ....                                                                                XXOOOOOO                                                                                                                ",
"OOoo......        ....        OOOO..OOOOoo      OO                                                              ........                                                                                XXOOOOOO                                                                                                                ",
"OOOOoo..              ..        OOOOOOOOoo    ooOO          ..XXXXXX                                            oo....OO                                                                                XXOOOOOO          oo                                                                                                    ",
"ooOOoo....                    ..OOOO  OOOO....OO    ..    XXXXXX....XX....  ....                    ..          XX....oo                                                                                XXOOOOOO                                                                                                                ",
"..OOOOoo..                  ..OO        OO..OOOO      ..XXXX          ........                      ..          XX....oo                                                                                XXOOOOOO                                                                                                                ",
"  ..oooo..          ..      OO            OO                                                        XX      ..  oo....oo                                                                                XXOOOOOO                                                                                                                ",
"    ..OOOOoo        ..    ..OO                                                  ..                ..OO..  ..    ooXX..oo                                                                                XXOOOOOO                                                                                                                ",
"  ......OOOOoo      ..    ..OO    ..    ......                          ..XX..  ..              ..XXOOXX..  ..  oo....oo                                                                                XXOOOOOO                                                                                                                ",
"  ....  ..OOOO    ....      ..oo    ..    ..OOXX              XXXX      XX  XX..                  ..OO..  ..    XXXX..oo                                                                                XXOOOOOO                                                                                                                ",
"  ....    ....  ....        ..oo    ....    XXOOXX        ..XXOOOOXX  XX..                          XX      ..  ......oo                                                                                XXOOOOOO                                                                                                                ",
"  ..        oooooo            oooo    ooXX    XXOO..    ....OOXXXXOOXX..                            ..    ..    XX....oo                                                                                XXOOOOOO                                                                                                                ",
"  ..        ..OOOOoo          ..oooo    oo..    XXXX....XXOOXX    XXOO          ..                  ..      ..  ......OO                                                                                XXOOOOOO                                ................................                                                ",
"  ..          ..OOoo    ....    ..oo      oo..    ..XXXXXX          OO          ..                ..            XX....OO                                                                                XXOOOOOO                                ................................                                        ..  ..  ",
"  ..            OOOOoo    ..      ..oo    ....                      XX        ..XX..            ..  ..          ......OO                                                                                XXOOOOOO                                ................................                                            ..  ",
"  ....          ..OOoo    ....      ..oo      oo                    XX          ..          ........            ......OO                                                                                XXOOOOOO                                ................................                                      ..        ",
"    ....          OOoo      ..        ..      oo    ..              ..          ..          ....    ..          ......OO                                                                                XXOOOOOO                                ................................                                          ....  ",
"      ....        OO..      ..        ..    ..oo    ....            ....                  ..                    ......OO                                                                                XXOOOOOO                                ................................                                        ......  ",
"            ..  OOOO..      ..      ..      ....      ....            ..                    ..              ..  ......OO                                                                                XXOOOOOO                                ................................                                      ........  ",
"              ..OOoo..              ..    ....          ..              ..                                  ..  ......OO                                                                                XXOOOOOO                                ................................                                          ....  ",
"              OOoo..              ..      ..            ....            ..  ..                              XX  ....  OO                                                                                XXOOOOOO                                                                                                      ..  ....  ",
"          oo  oo....        ..            ..              ......              ..                                ....  OO                                                                                XXOOOOOO                                                                                                    ..  ......  ",
"          OO    ..        ....            ..                                    oo                          XX  ....  OO                                                                                XXOOOOOO                                                                                                      ....  ..  ",
"          OO      ..    ..  ..              ..                                  ..oo..                      XX  ....  OO                                                                                XXOOOOOO    ..      ..                                                                                      ..    ..    ",
"          OOoo      ....    ..                                        ..          ..oo..                    XX  ....  OO                                                                                XXOOOOOO    ....  ..                                                                                      ..  ..        ",
"            OO                XX                                        ..          ..oo....                XX  ..    OO                                                                                XXOOOOOO  ........XX..                                                                                      ..  ..  ..  ",
"            OOoo              XXXX                                        ..            ......        ....  XX  ....  OO                                                                                XXOOOOOO  ..  ..  ..                                                                                      ..            ",
"              OOoooo            XX..                                      ....            ....      ....XXXXOO  ..    OO                                                                                XXOOOOOO    ....XX                                                                                            ..        ",
"                  ....          ..XX                                        ..            ....    ..ooXX..OOOO  ..    OO                                                                                XXOOOOOO  ......                                                                                        ..              ",
"                    ..            XX                                        ..              ......oo..    ..OO  ..    OO                                                                                XXOOOOOO  ..XX....                                                                                                      ",
"                    ..            XXXX                                      ..              ....  ..        OO  ..    OO                                                                                XXOOOOOO  ..  ..                                                                                                        ",
"                    ..            ..XX                                    ....                              OO  ....  OO                                                                                XXOOOOOO  ....  ..                                                                                        XX            ",
"                  ..              XX                                      ..                                XX  ..    OO                                                                                XXOOOOOO  ........                                                                                                      ",
"              ..  ..            ..XX                                    ....                              ..XX  ..    OO                                                                                XXOOOOOO    ..                                                                                                          ",
"                ..              XXXX                              ..  ....                          XX....  XX  ..    OO                                                                                XXOOOOOO  ..  ..                                                                                                        ",
"                                XX                                ......                          XX..XX....XX  ..    OO                                                                                XXOOOOOO    ..                                                                                                          ",
"                              ..                                                                ....XX      ..  ..    OO                                                                                XXOOOOOO  ..                                                                                                            ",
"                            ..                                                                ..XX..  ....  ..  ..    OO                                                                                XXOOOOOO                                                                                                            ..  ",
"                                                                                          ..    ..  ..      ..  ..    OO                                                                                XXOOOOOO                                                                                                          ..    ",
"                                                                                    ..        ......        ..  ..    OO                                                                                XXOOOOOO                                                                                                            ..  ",
"                                                                                            ......          ..  ..    OO                                                                                XXOOOOOO                                                                                                                ",
"                                                                                          ......            ..  ..    OO                                                                                XXOOOOOO                                                                                                      ..  ..    ",
"                                                                              ..  ..  ..    ..    ..            ..  ..OO                                                                                XXOOOOOO                                                                                                                ",
"                ..  ..                                                  ..                ..                    ....  OO                                                                                XXOOOOOO                                                                                                                ",
"                  ..                                                      ..        ..  ..  ..                  ......OO                                                                                XXOOOOOO                                                                                                    ..          ",
"            ..  ..                                          ..          ..        ..  ..  ..  ....    ..    ..  ....  OO                                                                                XXOOOOOO                          ..                                                                                    ",
"      ..  ..  ..                                                          ..    ..  ..  ......            ..    ..    OO                                                                                XXOOOOOO                                                        ..                                                      ",
"    ..  ..  ..                                                      ..        ..  ..  XX..XXoo..        ..  ..  ....  OO                                                                                XXOOOOOO                      ..                              ..                                                        ",
"  ..  ..  ..  ..                                                      ..        ....XX..XXoooo    ..      ..    ....  OO                                                                                XXOOOOOO                  ..                                                                                            ",
"..  ..  ..  ..                                                      ..    ..  ..XXXX..oooooo                ..  ......OO                                                                                XXOOOOOO                                                ..  ..                                                          ",
"  ..XX..  ..                                                                XXXXXX..XXooooooXX..                ..    OO                                                                                XXOOOOOO      ..    ..  ..  ..                        ......                                                            ",
"..XX..XX..                                                                  ......XXooooooXX                ..  ..    OO                                                                                XXOOOOOO  ..          ..  ..                            ..                                                              ",
"XX..XX..                  ..                                      ....    ..  ..  ..ooooXX  ..  ..    ..        ..    OO                                                                                XXOOOOOO        ..  ..  ..                            ..XX..                  ..                                        ",
"..XX..                                                          ..      ..    ..    ..oo  XX  ..            ..  ..    OO                                                                                XXOOOOOO  ..      ..  ......                        ......                                                              ",
"XX..XX..                                                                ..    ..    ..  XX  ..            ....  ..    OO                                                                                XXOOOOOO    ..  ..  ......                        ..  ..                                                                ",
"..XX..                                                  ..  ..    ..          XX      XX  ..  ..  ..    ..  ..  ..    OO                                                                                XXOOOOOO    ....  ......                            ..  ..                                                              ",
"XX..  ..                                                      ..      ..      XX      ....  ..        XXXX..XX  ..    OO                                                                                XXOOOOOO  ..  ........  ..                        ..  ..                                                                ",
"..XX..                                                              ..        XX          ..          XXooXX..  ..    OO                                                                                XXOOOOOO  ....  ..XX  ..                        ..  ..                                                                  ",
"XX..                                                            ..    ..    ..OO..    ....        ..XXXXoo..    ..    OO                                                                                XXOOOOOO  ..  ..XX....                                                                                                  ",
"..  ..                                                  ..  ..    ..  ..    XXOOXX    ..              ooooXX..  ..    OO                                                                                XXOOOOOO  ......XXXX                          ..                                                                        ",
"XX..                                                      ..  ..    ......XXOOOOooXX....              ooXX..    ..    OO                                                                                XXOOOOOO  ..XX..XX....        oo                                                                                        ",
"..                                                      ..  ..    ..XX..    XXOOXX    ..          ....XX..  ..  ..    OO                                                                                XXOOOOOO  XXXX..XX..  ..                                                                                                ",
"  ..                                              ..      ..XX  ..XXXX..    ..OO..    ..        ..  XX..  ..    ..    OO                                                                                XXOOOOOO  XX......  ..                                                                                                  ",
"..                                              ..    ..XXXX..    ..XX..      XX              ..  ....XX..      ..    OO                                                                                XXOOOOOO  XXXX......                                                                                                    ",
"  ..                                          ..  ..    XX..      ......      XX      ....        ..XX..        ..    OO                                                                                XXOOOOOO  XX..........                                      ..  ..                                                      ",
"..                                              ..  ..XX..      ....  ..      XX      ..        ..  ....        ..    OO                                                                                XXOOOOOO  ..XX......                                                                                                    ",
"                                              ..  ..  XX..      ....          ..    ..oo..  ..      ..          ..    OO                                                                                XXOOOOOO  XX....  ..                                                                                                    ",
"..                                              ..  ....      ....        ..  ..    ..oooo      ....  ..        ..    OO                                                                                XXOOOOOO  ..XX  ..                                    ..  ..                                                            ",
"                                              ..  ..XX..        ..            ..  ..oooo....  ....  ..  ..      ..    OO                                                                                XXOOOOOO  XX..      ..                            ..                                                                    ",
"..                                              ..  XX..      ..              ....oo..oo..  ..    ..XX..        ..    OO                                                                                XXOOOOOO  XX....            ..                        ..                                                                ",
"                                                  ......    ....            ..  ........oo..  ..  XXXXXX  ..    ..    OO                                                                                XXOOOOOO  ..            ..                      ..  ..  ..                                                              ",
"                                                ..  ....    ..                ..  ....oo..  ..    ..XX..        ..    OO                                                                                XXOOOOOO  ....            ....        oo....  XX  ......                                                                ",
"                                                  ....    ....              ..  ........  ..  ..XXXXXX  ..  ..  ....  OO                                                                                XXOOOOOO  ..  ..      ......        ..  ..  ..  ......                                                                  ",
"                                              ..  ..      ..              ..        ..  ..XX..    ..XX..    XX  ..XX..OO                                                                                XXOOOOOO  ....          ..              ..    XX....XX..                                                                ",
"                                                ....                              ..  ..XX..        ..    ....  XXXX  OO                                                                                XXOOOOOO  ..        ........      ..    ..    XX......                                                                  ",
"                                            ..  ..                              ..  ..  ..XX..  ..    ......XX  ..XX  OO                                                                                XXOOOOOO  ..          ....              oo      ....  ..                                                                ",
"                                              ....                    ..          ..  ..XX..  ..  ..    ..XXXX  XXXX..OO                                                                                XXOOOOOO          ....oo        ..      oo      ......                                                                  ",
"                                          ..              ..                  ..    ..XX..........  ....  ..XX  ..XX  OO                                                                                XXOOOOOO  ..        ..          ..    ..OO..    ....                                                                    ",
"                                        ..  ..            ..                          ..  ....    ..    ....XX  ..XX..OO                                                                                XXOOOOOO          ..        ..XX..  ..ooOOoo..  ..                                                                      ",
"                                                        ..XX..                  ..  ......  ....      ..  ..XX  XXXX..OO                                                                                XXOOOOOO            ..      ..XX  ..ooXXOOOOooOO  ..                                                                    ",
"                          ..                              ..                          ......    ..        XX..  XXXX  OO                                                                                XXOOOOOO          ..      ..XXXX..  ..ooOOoo..  ..                                                                      ",
"                                                          ..                  ..  ......    ..    ..    ....XX  XXXX..OO                                                                                XXOOOOOO                ....XX....    ..OO..    ..                                                                      ",
"                                                                                ....    ..                XXXX  XXXX  OO                                                                                XXOOOOOO                  ..XXXXoo      oo      ..                                                                      ",
"                                                                                ..  ..        ..      ..  ..XX  ..XX..OO                                                                                XXOOOOOO              oo..XXXX..oo      oo                                                        ....                  ",
"                                                                              ..oo..  ..                    ..  ..XX  OO                                                                                XXOOOOOO                  ..XX..oo..    oo    XX                                                ..                      ",
"                                                                              ..oo..          ....          ..  ....  OO                                                                                XXOOOOOO                ..XX....oooo    ..                                                    ..                        ",
"                                                                            ....OO....  ..      ..  ..    ..    ..    OO                                                                                XXOOOOOO              XX  ..XXXX..oo..  ..  ..                                              ....                        ",
"                                                                            ..ooOOoo        ....  ..    ..  ..  ....  OO                                                                                XXOOOOOO                ..  ..XX..XXooXX....                                                ..                          ",
"                                                                            ooOOOOOOoo          ........  ....  ..    OO                                                                                XXOOOOOO                  ..XXXX..ooXXooXXXX                                              ....                          ",
"                                                                          ....ooOOoo....  ..  ..    ..  ..  ..  ..    OO                                                                                XXOOOOOO                  ....XX..XX....                                                  ..                            ",
"                                                                        ......  OO....        ..    ....  ....  ..    OO                                                                                XXOOOOOO                ......XX....XX                                                    ..                            ",
"                                                                      ......    oo......      ..      ....  ..  ..    OO                                                                                XXOOOOOO                ..  ..XX..XX....                                                  ..                            ",
"                                              ..                        ..    ..oo..        ..XX..    ......    XX    OO                                                                                XXOOOOOO              ..  ......XXXXXX                                                    ....                          ",
"                                                                    ......      ....        ..XX..      ..  ..  XX    OO                                                                                XXOOOOOO                ..  ....XXXX..                                                      ..                          ",
"                                                                      ..    ......        ....OO....    ....    XX..  OO                                                                                XXOOOOOO              ......  ..XXXX                                                        ....                        ",
"                                                                    ......    ..          ..XXOOXX..    ..  ..  OO..  OO                                                                                XXOOOOOO                ..  ......                                                            ..                        ",
"                                                                  ....      ......      ..XXXXOOXXXX..  ..      OOXX..OO                                                                                XXOOOOOO            ......    ..                                    ..                        ..                        ",
"                              ..                                    ....    ..        ..XXXXOOOOOOXXXX....      OOXX..OO                                                                                XXOOOOOO              ..    ......                                ......                                                ",
"                                                                  ....    ..            ..XXXXOOXXXX..          OO..  OO                                                                                XXOOOOOO  oo        ....      ..                                    ..                                                  ",
"                                                                  ..                      ..XXOOXX..            XX..  OO                                                                                XXOOOOOO            ..        ....                                                                                      ",
"                                                                ..        ..              ....OO....            XX    OO                                                                                XXOOOOOO          ....        ..                                                                  ..                    ",
"                                                                ..                          ..XX..              XX    OO                                                                                XXOOOOOO  oo                    ..                                                              ....                    ",
"                                                                                            ..XX..              ..    OO                                                                                XXOOOOOO  oo                ....                                                                ..          ..          ",
"                              ..                            ..          ..                    ..    ..          ..    OO                                                                                XXOOOOOO                  ....                                                                  ..          ..          ",
"                                                                                              ..                ..    OO                                                                                XXOOOOOO  oo                ..                                          ..                    ....          ..          ",
"                                                                                              ....              ..    OO                                                                                XXOOOOOO  oo            ..                                            ......                  ..            ..          ",
"                                                                                              ..                ..    OO                                                                                XXOOOOOO  ..                                        ....              ..  ..                ..OO    ..      ..          ",
"                                                    ..                                        ..                ..    OO                                                                                XXOOOOOO  ..          ..                ..        ..  ....          ....                    OO..          ....          ",
"                                                                                            ......              ..    OO                                                                                XXOOOOOO  OO                            ..      ..      ..          XX                    ..OO      ..    ..            ",
"                                                ..                                            ..                ..    OO                                                                                XXOOOOOO  OOoo                            ..    ..        ..      ..XX                    OOOO      ..XX....            ",
"            ..                                  ..                                          ..  ..              ..    OO                                                                                XXOOOOOO  OOoo                      ..    ..  ..                  ..XX                    OO..        XX..              ",
"                                              ..                                                                ..    OO                                                                                XXOOOOOO  OOOO                      ..      ....              ..  ..XX                    OO                            ",
"                                        ..  ....                                              ..                ..    OO                                                                                XXOOOOOO  ..OOOO                    XX                              XX..                  OOXX                          ",
"                                          ....                                                            ..    ..    OO                                                                                XXOOOOOO  ..  oo                  ..XX..                            ..XX                  OOXX                          ",
"                                      ..  ..                                                                    ..    OO                                                                                XXOOOOOO  ..  OO..                  ..                                ....                OOOO                          ",
"                                        ....                                                                    ..    OO                                                                                XXOOOOOO  ..    ..                  ..                  ..              ..                  OOOO                        ",
"                                      ....                                                                      ..    OO                                                                                XXOOOOOO  oo    ..                            ..          ..oooo                            XXXX                        ",
"                                    ..  ....                                                                    ..    OO                                                                                XXOOOOOO  oo      ..                      ..                  ....                          XXXX                        ",
"                                  ..  ....                                                                      ..    OO                                                                                XXOOOOOO  ..      ..                    ..                    ooOO..                          XX                        ",
"                                    ....  ..                                                                    ..    OO                                                                                XXOOOOOO  ..        ..                  ..                      OOOO  oo..                    XXXX            XXXXXXXX  ",
"                                ......  ..                                                                      ..    OO                                                                                XXOOOOOO  ..          ....            ..                        ..OO  oooo..                  XXXX            XXOOOOOO  ",
"                                  ......                                                                        ..    OO                                                                                XXOOOOOO  ..              ..          ..                          OO..OO..oo..                  XX          XXOOOOXXOO  ",
"                              ........  ..                                                          ..          ..    OO                                                                                XXOOOOOO  oo                ..        ....          ....          ooooOO  ..oo                  XXXX        OOOOXXXXXX  ",
"                                ....                                                                            ..    OO                                                                                XXOOOOOO          ..        ......      ..        ..........      ..OOoo    oo....                  XX    XXOOXX        ",
"                                ..    ..                                                                        ..    OO                                                                                XXOOOOOO          ..    XX..    ..      ....  ......    ........    OOOO    ......  ..oo..                XXOO          ",
"                              ..  ..                                                          ..                ..    OO                                                                                XXOOOOOO          ....XXXX      ..        ........          ......  OO          ......oo....              OO            ",
"                                ..  ..                                                          ..              ..    OO                                                                                XXOOOOOO            XXXX                    ....                    OO              ..oo  ..              OO            ",
"                            ....                                                            ..                  ..    OO                                                                                XXOOOOOO                        ..        ....                    OOOO                oo    ..XX....      OO            ",
"                          ..                                                              ..XX..                ..    OO                                                                                XXOOOOOO                        XX      ..XX..                  XXOOXX                oo..        ....oo    OO          ",
"                        ..  ..                                                          ..XX..                  ..    OO                                                                                XXOOOOOO                        XX..    ..XX..              XXXXOOOO                    ..            oo..              ",
"                          ..                                                              ..                    ..    OO                                                                                XXOOOOOO                        ..XX  XXXX..              XXOOOOOOOO                    ....            ..      ....    ",
"                                                                                      ..                        ..    OO                                                                                XXOOOOOO                          XXXX......            XXOO    OOOOOO          ......oo  ....          ....  XXXXXX..  ",
"                                                                                        ..                      ..    OO                                                                                XXOOOOOO                          ..XX..              ..OO        XXOOOO      XX..OOOOOO......              ..XXOOOOXX  ",
"                      ..                                                              ..                        ..    OO                                                                                XXOOOOOO                        ..                    ..OO          XXOO    ..XXOOOOOOOOOOOO..          ....XXOOOOOOXX  ",
"                    ..                                                            ..                            ..    OO                                                                                XXOOOOOO              ..      ..                ..    ..OOOO          OOOO..XXOOooooooooooOOOO..    ......XXOOOOXXOOOO  ",
"                                                                                                                ..    OO                                                                                XXOOOOOO              ..      ..                        XXOO          XXOOXXOO..          ooooOOXX......OOOOOOXX  XXOO  ",
"                    ..                                                                                          ..    OO                                                                                XXOOOOOO            ......    ..                ..        XXOO          XXOO..              ..OOXX......XXOOXX    XXOO  ",
"                  ..                                                                                            ..    OO                                                                                XXOOOOOO              ..    ..                  ....        XXXX          OO                  ooOO........XX      XXOO  ",
"                  ..                                                                                            ..    OO                                                                                XXOOOOOO                    ..                    XX..        XX          ..                    XXXXXXXX....        XX  ",
"                ..                                                                                              ..    OO                                                                                XXOOOOOO                    ..                    ..XXoo..XXXX..          ..                      ....  ....        XX  ",
"                                                                                                                OO    oo                                                                                XXOOOOOO                                            ..XXXX..              ....          ....            ..              ",
"                  ..                                              XX                                            OO    oo                                                                                XXOOOOOO                    ..                      ..                      ..        oo  ..XX        ....          XX  ",
"              ....                                                                                              oo    OO                                                                                XXOOOOOO                                          ..                        ....    ..      OO        ..          XXOO  ",
"                                                                                                                oo    OO                                                                                XXOOOOOO                                  ..      ..                          ..              OO    ....XXXXXX  XXXXOO  ",
"            ..                                                                                                  oo    OO                                                                                XXOOOOOO                                        ..                                            OOXX  XXXXOOOOXXXXXXOOOO  ",
"              ..                                                                                                oo    OO                                                                                XXOOOOOO                                      ..                                ..              OOXXXXOOOOOOOOXXXXOOOO  ",
"            ..                                                                ..                                oo  ..OO                                                                                XXOOooOO                                                    XX              ..                  OOOOOOOO    OOOOOOOOOO  ",
"          ..                                                                                                    oo....OO                                                                                XXooooOO                                                    XX            ....                    OOOO        OOOOOOOO  ",
"                                                                          ..                                    ooOO  OO                                                                                XXooooOO                                                    XXoo          ..      ..          OO              XXOOOOOO  ",
"          ..                                                          ..                                        oo    OO                                                                                XXooooOO                                                      ooXX      ....      ..        ..OO                OOOOOO  ",
"                                                                        ....                                    oo    OO                                                                                XXXXooOO                                                        XXXX......        ....  ......                      OO  ",
"                                                                      ..                                        oo    OO                                                                                XX  XXOO                                                          XXXX              ....                                ",
"          ..                                                        ..  ..                                      oo    OO                                                                                XX  XXOO                                                                                                                ",
"                                                                      ..                                        oo    OO                                                                                XX  XXOO                                                                                                                ",
"                                                                    ..                                          oo    OO                                                                                XX    OO          XX..........XXXXOO  XX........XXXXOO  XX..........XXXXOO  ........XXXX..      XXXXXX      ....XXXXXXOO",
"        ..  ..                                                                                                  oo    OO                                                                                XX    OO          XXXX          OOOO  XX          OOOO  XXXX          OOOO  ..        XXOOOO    ..XXOO    XXXX..    OOOO",
"          ..  ..                                                                                                oo    ........ooOO................................................XXXXXXooooooooXXXXXXXXXX    OO          XX      XX......OO  XXXX..........OO  XX      XX......OO  ..XX..........OOOO    OOOO  ..XX..........OO",
"    ....    ..                                                                                                  oo            ooXX..                                                        ..                OO                ..OOXX        ..OOXX                  ..OOXX        ..OOXX      ....OO    OOXX  XX....          ",
"        ....  ....                                                                                              oo            ooOOXX..                                  XX                ....                OO                ..OOOO        ..OOOO        XX        ..OOOO        ..OOOO        ..OO  ..OOXX  XX..            ",
"....  ..        ....  ..  ..                                                                                    oo            ..OOOOXX..                            ....XX..XX          ......XX              OO                ..OOOO        ..OOOO      XXOO        ..OOOO    ..  ..OOOO      ..XXOO  ..OOXX  ....OO          ",
"    ..                                                                                                          oo........................................................XXXXXXXX......................OOOOOOOO                ..OOOO        ..XXOO    XXXXOO        ..OOOO    XX  XXXXOO  XXXX..XX    ..OOOO    ....OOOO      ",
"    oooooooo  oooo  oooooooo                                                                                                                                                                                                    ..OOOO        ....XX  XXXXOOOO        ..OOOO  ..OO..OO..XXOO......      ..OOOO      ....OOOO    ",
"    XXXX      XXXX    XXXX                                                                                                                                                                                                      ..OOOO        ..XXOO    ....OO        ..OOOO    XX  XX..XXOO..          ..OOOO          ..OO    ",
"    XXXXXXXX  XXXX    XXXX                                                                                                                                                                                                      ..OOOO        ..OOOO      ..OO        ..OOOO    ..  ..XXXX..XX          ..OOOO          XXOO    ",
"        ....  ....    ....                                                                                                                                                                                                      ..OOOO        ..OOOO        OO        ..OOOO        ..XXOO  ..XX        ..OOOO        XXOOXX    ",
"    ........  ....    ....                                                                                                                                                                                                      ..OOOO        ..OOOO                  ..OOOO        ..OOOO  ..OO        ..OOOO        ..OO      ",
"                                                                                                                                                                                                                                ..OOOO        ..OO......XXXXOO        ..OOOO        ..OOOO  ..XXOO      ..OOOO      ..OOXX      ",
"                                                                                                                                                                                                                                ..OOOO        ..          OOOO        ..OOOO        ..OOOO    ..OO      ..OOOO      ..OO        ",
"                                                                                                                                                                                                                                ..  OO        ............  OO        ..  OO        ..  OO    ..  OO    ..  OO    XX  XX        ",
"                                                                                                                                                                                                                                                                                                                                ",
"                                                                                                                                                                                                                                                                                                                                ",
"                                                                                                                                                                                                                                                                                                                                "
};
