/* XPM */
static char *loader_320_mono[] = {
/* columns rows colors chars-per-pixel */
"320 200 5 1 ",
"  c black",
". c #555555",
"X c #808080",
"o c gray67",
"O c white",
/* pixels */
"                                      XX..............................XX..XXXXXXXXXXXXOO    XX..........XX..XXXXXXXXXXXXooOO    ooXXXXXXXXXXXXXX........XXooXXXXXXXXooXXooooooooOO    XXXXXXXXXXXXXXXXXXXXooXXoooooooooo                  XXXXXXXXXX                  XXXXXXXXXXXXooXXooooooooooooooooOO                  ..oo..",
"                                      XXXX..........................XX..XXXXXXXXXXXXOOOO    oo........XX..XXXXXXXXXXXXXXOOOO    ooooXXXXXXXXXX........XXooXXXXXXXXooXXooooooooOOOO    ooXXXXXXXXXXXXXXXXooXXoooooooooooooooo              XXXXXXXXOO              XXXXXXXXXXXXXXooXXooooooooooooooooOOOO                  oo..  ",
"                                      XXXXXX......................XX..XXXXXXXXXXXXOOOOOO    oo......XX..XXXXXXXXXXXXXXOOOOOO    ooooooXXXXXX........XXooXXXXXXXXooXXooooooooOOOOOO    oo..XXXXXXXXXXXXooXXoooooooooooooooooooo            ..XXXXOOOO            ..XXXXXXXXXXXXooXXooooooooooooooooOOOOOO                  oo    ",
"                                      XXXXXXXX                  XXXXXXXXXXooooooOOOOOOOO    oo..oo        ....XXXXXXOOOOOOOO    ooooooooooooooooooooooooooooooooooooooooooOOOOOOOO    oo..XXXXXXXXXXXXXXoooooooooooooooooooooo..          ....XXOOOO          ......XX          XXXXXXXXXXXXXXXXOOOOOOOO                  ..    ",
"                                      XXXXXX                ..oo                ..OOOOOO    oo..oo..                XXOOOOOO    ooooXX    ....          ooOOOO            ..OOOOOO    oo..oo          ......      ....ooooooOOOO          ....ooOOOO          ......  ......                    XXOOOOOO                        ",
"                                      XXXX                ....oo..                ..OOOO    oo..oooo..                XXOOOO    ooXX    ....          ..ooooOO              ..OOOO    oo..oo..XX    ......        ......ooooOOOO..        XX..ooOOOO        ........  ........                    XXOOOO                        ",
"                                      XX  ....XXXXXXXXXX......oooo....................OO    XX..oooooo..................XXOO    XX  XXXXXX..............OOooooOOXXXX............OO    oo..oooo................XXXXoooo....ooOOOOOO        XX..ooOOOO        ..oo..  ..oooo........XXXXooXX......XXXXXXOO                        ",
"                                                          ....ooXXoo                        XX..ooXXoo                                              ....OOoooo                        oo..oooooo                    ..oo....ooOOOO..      oo....OOOO      ........  ..oo..                                                ..    ",
"                                                          ....ooOOOO                        XX..ooOOOO                                              ....OOOOOO                        ..  ooOOoo                      ..oo..ooOOOOoo      oo....OOOO      ..oo....ooOO..                                                    ..  ",
"                                                          ....ooOOOO                        ....ooOOOO                                              ....OOOOOO                        ..  ooOOOO                        oo..ooOOOOoo      ooXX..OOOO      ..oo..  OOOO                                                      ..  ",
"                                                          ....ooOOOO                        XX..ooOOOO                                              ....OOOOOO                            ooOOOO                        ....ooOOOOoo      oooo..OOoo      ..oo..  OO..                                                        ..",
"                                                          ....ooOOOO                        XX..ooOOOO                                              ....OOOOOO                            ooOOOO                          ....ooOOoo..    oooo..OOoo    ..oo..  ooOO                                                          ..",
"                                                          ....ooOOOO                        ....ooOOOO                                              ....ooOOOO                            ooOOOO                          ....ooOOoo..    oooo..OOoo    ..oo..  OOOO                                                          oo",
"                                                          ....ooOOOO                        ....ooOOOO                                              ..  ooOOOO                        ..  ooOOOO                          ....ooOOOO..    oooo..OO..    ..oo..  OOOO                                                          oo",
"                                                          ....ooOOOO                        ....ooOOOO                                              ..  ooOOOO                        ..  ooOOOO                          ....ooOOOO..    ooXX..OO..    ..oo    OOOO                                                          oo",
"                                                          ....ooOOOO                        ....ooOOOO                                              ..  ..OOOO            ..          ..  ooOOOO                          ....ooOOOO..    oo....OO..    ..OO    OOOO                                                        ..OO",
"                                                          ....ooOOOO                        ....ooOOOO                    ..                        ..  ..OOOO                        ..  ooOOOO                        ......ooOOoo..    XX....OO..    ..OO    ooOOoo                                                      ..OO",
"                                                          ....ooOOOO                        ....ooOOOO                  ..oo                        ..  ..OOOO            ..          ..  ooOOOO                        ....ooOOOOoo      XX....OO..      ..OO  XXOOOO                                                      OO  ",
"                                                          ....ooOOOO                        ....ooOOOO                ..ooOO                        ..  ..OOOO            ..          ..  ooOOOO                    ........ooOOOOoo      XX....OO..      ..OO    OOOOXX..                                                ..OO  ",
"                                                          ....ooOOOO                        ....ooOOOO              ..ooooOO                        ..  ..OOOO            ..          XX  ooOOOO            ........  ......ooOOOOoo      XX....OOoo      ..OO    OOOOoooo......XX                                      ..  OO  ",
"                                                          ....ooOOOO                        ....ooOOOO            ..ooooOOOO                        ..  ..OOOO            oo          XX  ooOOOO        ..XXXX        ....ooOOOOOO..      ......OOoo      ..OO    ooOOoooo......XXoooo                            ......    OO  ",
"                                                          ....ooOOOO                        ....ooOOOO          ..ooooooOOOO                        ..  ..OOOO            oo          XX  ooOOOO      ..XX        ......ooooOOOOoo..      ......OOoo      ..OOOO      XX......XXooooOOXX                        ....      OO    ",
"                                                          ....ooOOOO                        ..  XXooOO        ..ooooooOOOOOO                        ..  ooOOOO            oo          XX  ooOOOO      ..XX    ....ooooooooooooOOoo        ......OOOO        ..OO            ..XXooooOOOO                      ....        OO    ",
"                                                          ....ooOOOO                        ..  XXXXoo      ..ooooooooOOOOOO                        ..  ooOOOO          ..OO..        XX  XXXXOO      oo    ..oooo..XXXXooooooOOoo        ......OOOO        ..OOoo        ..  XXooOOOOOO                      ..          OO    ",
"                                                          ....ooOOOO                        ..  XXXX..    ..ooooooooOOOOOOOO                        ..  ooOOOO          ooOOoo        XX  XXXXXX    ..OO....oo........XXXXoooooo          ......OOOO          ..OOoo    ........XXOOOOOOXX                    ..        OO      ",
"                                                          ....ooOOOO                        ..  XXXXXX  ..XXXXXXXXXXOOOOOOOO                        ..  ooOOOO        ..ooOOoo..      oo  XXooXX    ooOO..ooOO..........XXXXoo            ......OOOO            ....oo    ........XXOOOOOO                    XX        OO      ",
"                                                          ....ooOOOO                        ..  XX..      ..        XXOOOOOO                        ....ooOOOO    ....ooOOOOOOoo....  oo  ..ooXX    OOoo..ooOO............                ......OOOO                ........ooOO..XXOOOOOO                      XX    XXOO      ",
"                                                          ....ooOOOO                        ..  ..  ..      ..        OOOOOO                        XX..ooOOOO        ..ooOOoo..      oo  ..oo..    OO....ooOOOO                          ......OOOO                          ..OOXXOOOOOO                        OOXXoooo      ",
"                                                          ....ooOOOO                        ..    ..OO        ..      XXOOOO                        XX..ooOOOO          ooOOoo        XX  XXoo..    OO..ooOOOO                            ......OOOO                            OO..XXOOOO                        XXOOooXX      ",
"                                                          ..  ooOOOO                        ..  ....OO          XX      OOOO                        oo..ooOOOO          ..OO..        XX  XXoo..    OO..ooOOOO                            ......OOOO                            XX..XXOOOO                          OOOOXX      ",
"                                                          ..  ooOOOO                        ..  ..OOOO            XX    OOOO                        oo..ooOOOO            oo          XX  XXooXX    OO..ooOOOO                            ......OOOO                            ..  XXOOOO                          XXOOOO      ",
"                                                          ..  ooOOOO                        ..  ..OOOO              XX  XXOO                        XX..ooOOOO            oo          XX  XXooXX    OO..ooOOOO                            ......OOOO                            ..  XXOOOO                          XXooOO      ",
"                                                          ..  ooOOOO                        ..  ..OOOO                ..  OO                        XX....OOOO            oo          XX....XXOO    OOoo..OOOO..                          ..  ..OOOO                          ..    ooOOXX                          oooooooo    ",
"                                                          ..  ooOOOO                        ..  ..OOOO                  ..OO                        XX..XXOOOO            ..          oo..XXOOOO    ooOO..ooOOOO                          ..  ..OOOO                          ..  ooOOOOXX                          ooOOXX  oo  ",
"                                                          ..  ooOOOO                        ..  ..OOOO                    ..                        ....XXOOOO            ..          oo..XXOOOO    ..OO..ooOOOO..                        XX  ..OOOO                        ..    ooOOOOoo      ......              OOooXX    ..",
"                                                          ..  ooOOOO                        ..  ..OOOO                                              ....XXOOOO            ..          oo....OOOO      oo....OOOOoo                        XX  ..OOOO                        ..  ..OOOOOO      ..    ..              OOoo      ..",
"                                                          ..  ooOOOO                        ..  ..OOOO                                              ......OOOO                        XX....OOOO      oo......OOoo..                      XX  ..OOOO                      ......ooOOOOOO    ..      ..              OOoo      ..",
"                                                          ..  ooOOOO                        ..  ..OOOO                                              ....  OOOO            ..          XX..  OOOO      ..oo....OOoooo                      XX  ..OOOO                      oo....OOOOOOoo    ..    ..  ..          ooOOoo      ..",
"                                                          ..  XXOOOO                        ..  ..OOOO                                              ....  OOOO                        ....  OOOO        oo......oooo..                    XX    OOOO                    ..oo..ooOOoooo        ....  ....          ooOOoo    ..  ",
"                                                          ..  XXOOOO                        XX  ..OOOO                                              ....  OOOO                        ....  OOOO        ..oo....oooooo                    XX    OOOO                    ooOO..OOoooooo            ..  ..  ..      ooOOoo  ....  ",
"                                                          ..  XXOOOO                        XX  ..OOOO                                              ....  OOOO                        ....  OOOO          oo......oooo..                  XX    ooOO                  ..OO..ooOOoooo            ..  ....    ....  ooOO    ..    ",
"                                                          ..  XXOOOO                        XX  ..OOOO                                              ..    OOOO                        ....  OOOO          ..XX....oooooo                  XX    ooOO                  ooOO..OOoooooo                  ..      ..  ooOO  ....    ",
"                                                          ..  XXOOOO                        XX  ..OOOO                                              ..    OOOO                        ..    OOOO            oo......oooo..                XX    ooOO                ..OO..oooooooo                    ....    ..  OOoo          ",
"                                                          ..    OOOO                        XX  ..OOOO                                              ..    OOOO                        ..    OOOO            ..XX....oooooo                oo    oooo                oo....oooooooo                        ......  OOoo          ",
"                                                          ..    OOOO                        XX  ..OOOO                                              ..    OOOO                        ..    OOOO              XX..  ..oooo..              oo    oooo              ..oo..oooooooo                      ....        OOoo          ",
"                                                          ..    OOOO                        oo..ooOOOO                                              ..    OOOO                        ..    OOOO              ..XX    oooooo              XX    XXoo              oo....oooooooo                    ....    ..    OOoo          ",
"                                                          ..    OOOO                        oo..ooOOoo....................OO                        ..    OOOO                        ..    OOOO                XX..  ..oooo..            XX    XXXX            ..oo..oooooooo                    ..    ..    ..  OO            ",
"                                                          ..    OOOO                        XX..oooo....................OOOO                        ..    OOOO                        ..    OOOO                ..XX    ooOOoo            ..    ooXX            oo....oooooooo                  ..        ..  ..  OO            ",
"                                                          ..  XXOOOO                        XX..oo....................OOOOOO                        ..  ooOOOO                        ..  ooOOOO                  XX    ..OOOO..          ..  oooooo          ..oo..  ..XXoo                    XX            ..OO              ",
"                                                            ..  OOOO                        ..  ............XXXXooooOOOOOOOO                          ..  OOOO                          ..  OOOO                  ....  ..  OO..            ..  oooo          oo..    ..XXXX                    XX      ......  OO              ",
"                                                          ..      OO                        ..                      ..OOOOOO                        ..      OO                        ..      OO                    XX..      OO..        ..      oo        ....        ..                      ..XX    ..    OO                ",
"                                                                                                                      ..OOOO                                                                                        ..          oo                          oo          ..                        ..XX    ..  OO                ",
"                                                          ..........                        ..............................OO                        ..........                        ..........                      ..............      ..........      ..............                            oo      ..OO                ",
"                                                                                                                                                                                                                                                                                                    oo      OO                  ",
"                                                                                                                                                                                                                                                                                                    XX      OO                  ",
"                                                                                                                                                                                                                                                                                              ..ooooXX    OO                    ",
"                                                                                                                                                                                                                                                                                          ..ooOOOOOO..    OO                    ",
"                                                                                                                                                                                                                                                                                        ooOOOOoo..        OO..                  ",
"                                                                                ..                                                                                                                                                                                                      OOoo              OO..                  ",
"                                                                                  ..                                                                                                                                                                                                  ooOO                ..oo                  ",
"                                                                                                                                                                                                                                                                                      OO..                  oo..                ",
"                                                                                                          XX                                                                                    oo                                                                                    OO                    ..oo..              ",
"                                                                                                                                                                                                                                                                                      oo                      ..oo              ",
"                                                                                                                                                                                                                                                                                      oooo                        ..            ",
"                                                                                                                                                                                                                                                        ....                          ..XX                        ..            ",
"                                                                                                                                                                                                                                                      ..    ..                          XXoooo......            ..            ..",
"                                                                                                                                                                                                                                                    ..                                  ooXX        ..        ..              ..",
"                                                                                                                                                                                                                                              ..    ..                                      ..        ....    ..            ....",
"                                                                                                                                                                                                                              ..                      ..                                      ..          ..XX            ..oo..",
"                                                                                                                                    ..                                                                                                                  ..                                ..XX              XXXX          oo..  ",
"                ..                                      OO                                                                                                                                                                                                XXXX                          ..oo..                XX..        ..    ",
"                                                                                                                                                                                                                                                        XX    XX      ..              ..oo..                  ..OO      ....    ",
"                                                                                                                                                                                                                            ..        ......          OO        ..  ..        ..    ..XX..                      OO..    ..      ",
"                                                                                                      ..                                                                                                                      ..    ..oooooo..      OO            ..        ..  ......          ..              ..OO  ....      ",
"                                                                                                                                                    XX                                                                          ....oo    ..oo..  XXOO                    ..                      ..      ..    ..OO....        ",
"                                                                                                                                                                                                                                            ..ooXXOO      ..              ..                                      ..OO..        ",
"                    XX                                                                                                                                                                                                                        XXOO          ..            ..                      ..              ..OO          ",
"                                                                                ..XXXX                                                                                                                                                        XXOO          ....          ..                      ..              ..OO..        ",
"                                                                                XXXX..XX                                                                                                                                                      ..XX            ......  ..    ..                  ..                ..OO..        ",
"                                                                              ..XX    ..                                                                                                    ..                                              XX..XX                            ..            ....                  ..OO..        ",
"                                                        ..                    XX  ......                                                                                                                                                    XXOOXX              ..              XXOOOOOOXXXX                      ..OO..        ",
"                                                                              XX..  ..OO..        ........                                                                                                                                  XXOO              ..              XXOOXX                              ..OO..        ",
"                                                                            ..XX....  ooOO..  ......XXoooooo..                                                                                                          ..                  OOXX            ..              XXXXOOXX                              ..OO..        ",
"                                                                            XX..  ..  ..ooOO............oooooo..                                                                                                      ..                    OOXX            ..              OOOOXX                                XXOO..        ",
"                                                                            XX  ....    ..oooo..  ......ooOOoooo                                                                                                      XX                    OO              ..            XXOOXX                                  XXOO          ",
"                                                                            ..  ..  ..    ......    ......ooOOoo..                                                                                                    XX                    OO              ....          OOXX                                    XXOO          ",
"                  OO                                                        XX  ....oo..  ....        ......ooOOoo                                                                                                    ..XX                  XX                ..        XXOOXX                                    OOXX          ",
"                                        ..                                  XX    ..  oo......        ........OOOO..                                                                                                    ..OOOOOO      ....  XX      ....      XXXX      XXOO                                    ..OOXX          ",
"                                                                            XX..  oo    ......          ......OOOOoo                                                                                                  OOOOXXXXXXOO..XX  ..XX..  ............    OOXX    OOXX                                    ..OO..          ",
"XX          XX                                                              ..XX  oooo    ....  oo      ....ooOOOOoo                                                                                                XX        XXOOXX..    ..    ........oooo..    OOXX  OOXX..                                  ..OO..          ",
"                                                                              XX  ..oo    ....  OO    ......ooOOOOoo                                                                                              XX            XXOO          ......oooooooooo..    OOXXOOXX..                          oo      ..OO..          ",
"                                                                              XX    oooo  ....  oo..  ....ooOOOOOOOO                                                                                              XX            XXOO          ........ooooOOoooo..  OOOOOOXX....                                ..OO            ",
"                                                        OO                    XX..  ..oo..oo    ooOO  ..ooooOOOOOOOOoo                                                                                          XX              XXOO        ....  ......ooOOOOoo..    OOOOXXXXXXXXXX..                          ..OO            ",
"                                                                              ..XX    ......    ....oo....oo....ooOOoo                                                                                          XX              XXOO        ..      ......ooOOOOXX..  OOOOOOOOOOOOXXXX......                    ..OO            ",
"                                                                                XX      ..oo    ....oo........    oooo                                                                                          XX              XXOO        ..        ....ooOOOOOOXX    OOOOOO            ....                ....OO            ",
"                                                                                XX..    ..oo    ..  ....  ..OO..    oo                                                                                          XX              XXOO        ....        ....ooOOXXXX..  OOOO    ........    ......            ..OOXX            ",
"                                                        ..                      ..XX    ..oo..            OOOOOOoo  oo              ..                                                                    ..      XX  ..      ..XXOO      ..XXXX        ....XXooooooooXX      ..oooooooo..    OOOO..        ..XXOOXX      ..    ",
"                                          ..                                      XX..    oo..  ..        XXOOOOooXXoooo                                                                                ..        XX            XXOO      XX......        ....XXooOOooXX    ..XXooooOOoo..    ....OO..      XXOOOOXX            ",
"                                                                                  ..XX    ..oo  XX        ..XXOOOOXXXXoo                                                                                ..        XX            XXOO    ..XX..XXXX  ..XX  ......XXOOOOooXXXXXXooooOOOOOOoo..    ....OO    ..OOOOXXOO..          ",
"                                                                                    XX..  ..oo  ..XX..      ..OOOOooXXOO                                                                              ..          ..            XXOO    XX........    ..oo  ....XXooOOXXXX....ooooOOOOOOOOoo        ..OO  ..OOXX  ..OO..        ",
"                                                                                    ....  ......  ....      ..XXOOXX                                                                                  ..          ..            OO      ....    ..      ..    ..XXXXXXXX......ooOOOOOOOOOOOO..        ..OOOO..      ..OO      OO",
"                                                                                      ....  ..oo    OO        XXOOOOXX                                                                                ..          ..            OO    ......  ....      ..    ..ooXXXXXXXXXX..XXOOOOOOOOooOO..          ....          OO        ",
"                    XX                                                                  ..  ....  XX  OO      XXOOOOOO                                                                                  ..      ..            XXOO    XX..    XX        ..  ..ooXXXXXXXXXXXXXX..ooOOOOOOooOO..                          OO      ",
"..                                                            ..ooooooOO                ..  ....  XX  XX    XXXXOOXXXX                                                                                    ..    ..            XXOO    XX..  ..              ..ooooooooooooooooXXXXOOOOOOoooooo..                          ..    ",
"                                                          ....  ..ooooOOOOoo              ....    oo  oo      XXOOOOOO                                                                                      ....              XXOO    XX..  ..    ..      ..ooooooooooOOOOOOooooooooOOOOOOoooo..                            ..  ",
"                                                        ..        ..ooOOOOOOoo............XX..      oo        XXOO..XX                                                                                                        XXOO    oo..  ..  ..  ..  ....ooooooooOOOOOOOOOOOOooXXOOOOoooooo..                            ..  ",
"                                                        ..        ..ooOOOOOOOO    ..XXXXXXXX..    ..            ..OOXX                                                                              ....                      XXOO    oo..  ..  ..oo..  ..ooOOooOOooOOOOOOOOOOOOooooooOOOOOOoooo..                          ..  ",
"                                                      ..            ..ooOOOOOOoo    ..  ....    ....    ......    ..OO                                                                            ..    oo                    XXOO    oo..  ....  XX......ooOOOOOOooooOOOOOOOOOOOOooXXooOOOOooOO..              ..          OO  ",
"                                                      ..      ..    ..oooooooooo    ....        ..      XX..ooXXXXXX..                                                                                    oo          ..      XXOOXX  oo..        XX....ooOOOOOOOOOOooooOOOOOOooOOooXXooOOOOOOoo..                          OO  ",
"                                                      ..    ..  ..    ..oooooooooo    ....    ....    XX....                                                                                              ..oo                XXOOXX  oo....    XX......ooooOOOOOOOOooOOOOOOooooOOOOooXXOOOOOOOOoo..        XXXX            OO  ",
"                                                    ..        ......  ....ooooooXX    ..XX........XX  ....                                                                                                ..oo                  OOXX  ooXX      XX....oo..ooooOOOOooooOOOOOOooOOOOOOooXXooOOOOOOOO..      XXXX            OO    ",
"                                                    ..      ..  ..      ....oo..oo      ..XXXX..XXXX  ......                                                                                                oo..                XXOOXXooXX    XX    ......ooooOOOOooOOOOooOOOOOOOOOOooXX..OOOOooOOoo    XX                OO    ",
"                                                    ......    ......    ....XXoooooo  XX  ......XX..  ....  ..                                                                                              OO..                XXOOXX..XX  ..    ........ooooOOXXooXXXXooooOOOOOOOOOOooXXOOOOooOOoo  ..                  OO    ",
"                                                    ....    ..XX..      ..XXXXooOOooXXXXXX  XXXXXX....XX..    ....    ....oooo                                                                              OO..                  OOXX..XX  XX    ....  ..ooooOOooooooXXOOooOOOOOOOOOOooXXOOOOooOOOO..                    OO    ",
"oo                                                ....    ..  ..XX      ..ooooooOOooXXooOOXXXXXX..  ..XX  ..      ....ooooooOO..                                                                      ..    ..OO..                XXOO..XX  XX    ....  ....ooOOooooooooOOooooOOOOOOOOooXXOOOOooOOOOoo                    OO    ",
"                                                  ..    ..  ..XX....    ....ooooOOOOooXXXXOOXXXX  ..XX..  ........      ..ooooOO                                                                        ..  ..OO..                  XX....  XX  ......  ....ooOOooXXXXooooXXooOOOOOOOOOOooOOOOOOooOOoo                    OO    ",
"                                                ..    ......  ..XX..      ..XXooOOOOOOXXXXXXOO..  ..XX..        ............ooOO..                                                                        ..  ..oo                    ..XX  XX  ....      ..ooOOoo..XXXXXXXXooOOOOOOOOOOooooOOOOooOOOO..                  ..    ",
"                                              ....    ..........XX..      ..XXooooOOOOooXXXXXX..  ..XX..OOOO..        ....  ..ooOO                                                                              oo                    ....  XX  ..        ..ooOO........XXXXooOOOOOOOOOOooooOOOOooOOOO..                  ..    ",
"                                            ....    ....XXXX....XXXX..    ....ooooOOOOOOXXXXXX......ooooXXOOOO..        ..    ..OO                                                                                oo        XX        XX..  ..  ..      ....ooOO..  ....XXooooOOOOOOOOOOooooOOOOooOOOOoo        OO      ....    ",
"  XX                                      ....    ....XXXX....  ..oo..    ....ooooooOOOOXX..XXXX..oo..ooXXXXOOOO..      ....  oooo                                                                                  ..                XX..  ..  ..        ..ooOO      ..XXooooooOOOOOOOOOOooooOOooooOOoo                ..      ",
"                                        ....    ....XXXX....    ..XX..      ..ooooooooXX........ooooXXXXooooOOOOOO..      ..  ..oo                                                                                    ..            XX....  ..  ....    ....XXoo..  ..  ..ooooooooOOOOOOOOooooOOooooOOOO..              ..      ",
"                                      ....    ..........      ..  ..XX      ..XXoooooo......XXXXooXX  XX..ooOOOOOOoo          ..oo                                                                                          ..      XXOO..  ..  ....  ..  ..XXoo..    ..XXXXoo..ooooOOOOOOooooooooooOOOO..            ....      ",
"                                    ......  ..      ..  ........  ..XX..    ..XXooooXXXX..XXXXooooXXXX  ..ooooOOOOOO..    ....  oo                                                                                            XX  XXOOOO..  ..........  ....oooo..  ..  XX........ooOOOOooooooooooOOOOOO..                      ",
"                                  ......  ..      ..  ....  XX..    ....    ....oooooo....XXooooooooXX  ....ooOOOOOOOOoo        oo                                                                                              XXXXXX..      ..XXXX..    XXoo....    ............ooooOOooooooooXXooOOooOOOOOO                  ",
"                              ........              ....    XXXX..  XX..    ....XXooXXXX..ooooXXOOooooXX  ....ooOOOOOOOO    ....oo..                                                                          ..                      XX      ......  ....XXoo..          ..  ....ooooOOooOOooooXXooooXX      OOOO              ",
"                            ....XXXXXX          ......      XX..    ....    ....XXXXXX....XXooooOOOOooXX..  ..ooooOOOOOOoo    ......                                                                                                  OO      ....      ..oooo..        ..  ......oooo..ooOOooooXXXXoooo          OOOO          ",
"                            ..ooOOOOXXXX      ....          XX..    ....      ..XXXXXX....XXooooOOOOoooo........ooooOOOOOO    ......      ..                                                        ..            ..                  OO      ..      ..XXXXoo..              ......oo..ooOOooooXXXXXXoo            OO          ",
"                          ....ooOOOOOOXX........            XX    ..  ..      ..XX  XX....XXXXooooOOOOoooooo........ooOOOO    ....oo  ....  ..                                                        ..          ..                  OO              ..XXXX....            ..  ........OOOOooXXXXXXoo              OO          ",
"                          XXooOOOOOOOOXX....                ..  ..XX  ..              ..XXXXXXooooooooooXXXXXXXX..oo..XXOOoo    ........                                                                ..          ..                oo    ..      ....XXXX..      ..    ..    ......ooOOOOoooo..XX..              OO          ",
"                        XXooooOOOOOOOOXX..                  ..  ....      oooo..      ..XXXXXXXXXXooXXXXXXXXXXXX....ooXXOOoo      ..    ..                                                                oooo      ..            ooOOoo..          ..XXXX....                    ....ooOOOOooXX......                OO        ",
"                        XXooOOOOOOOOXX....                  ..  ..XX  ooooXX    ..  ......XXXXXXXXXXXXXX..............XXOOOO        ....                                                                oo  OOoo    ..          ooOO  oo..        ..XXXX  ..      ..              ..XXooOOOOoooo....                  OO        ",
"                      ..ooOOOOOOOOXX....                    ..  XXXXooooXX    ..oooo  ........................      XXooOOOO                                                                    ..    ..    OOoo  ..            OOoo  XX..        ..XXXX  ..    ....            ....XXooOOOOooXX....                  OO        ",
"                      XXooOOOOOOXXXX..                      ..  ..XXooXX    ..ooOOOOoo  ......                      XXooOOOO                                                                      ....        OOoo            ooOO    XX..    XX  ..XX..  ..  ......    ..        ..XXooOOooXXoo..                    OO        ",
"                    ..ooooOOOOooXX....                      ..  XX..XX      ..XXOOOOOOoo                      ....    XXooOOoo                                                                          ..    OOoo          ooOOoo    XX..      XX..OO..    ..XX..  ..            ....ooOOooooXX..                              ",
"                  ..XXooXXoooooo....                        ..  ..XX        ..ooooOOOOoo                  ..........  XXooOOOO                                                                        ..        OO        ooooOOoo    XX..        OOOOOO    ..XX....  ..            ..ooooooXXoo..        OOOO                  ",
"                ..XXooXXooooXXXX..                          ........  ..      ooooOOOOOO              ......    ....    XXooOOoo                                                                                OOoo    ooooOOoo      XX..        OOOOOO    ..XXXX  ..        OOXXXX..ooooooXXXXoo      OOOOOOOO                ",
"              ..XXooXXooXXXX....                            ..  ....          ..ooOOOOOO..      ..  ..XX        ..XX..  ooooOOOO                                                                                OO..    OOOOoo        ..XX      ..ooXX..OO    ..XX....      OOXX    ..XXooooXXXX..  oo  OO    OOOO              ",
"              ooooooooXXXX..                              ..  ....    ..  ..  ..ooooOOOO..  ........XX..        ....XX    ooOOOOoo                                                                                OOOOOOoooo          ..XX      ..oo..  OO    ..XXXX  ..    OO      ..XXooXXXXXXoo  ooOOOO        ..            ",
"            ..OOOOooooXX..                                ..    ..    ..      ..ooooOOOO..  ....XXXXXX            ..XX      ooOOoo                                                                              XXOO                  ....      ..oo..    OO  ..          OOXX    XX..XXooooXXXXoo  ooOO          ....          ",
"          ..ooOOOOOOooXX                                  ..  ....  ....  ..    ooooOOOO......XXXXXX..            ..XX..    ooOOOO                                                                              XX..                    ..    ..oooo..    OO      XXXX  OOXX        ..XXoooo..XXoo  oooo            ..          ",
"          ooOOOOOOXX                      oo              ..  ..    ..XX..  ..  XXooOOXX..  ........              ....XX      ooOOoo                                                                          XX....                    ..    ..ooXX..      OO  ..XXOOOO  OOXX      ..XXooXX..XXoo  oo                ..    XX..",
"        ..ooOOOOOO                                        ..  ..  ............  XXooXXXX....  ....                  ..XX..    ooOOOO                                                                          oo..                      ..    XXooXX      ..OOOOOOOO..  ooOOXX      ..XXoooo..XXoooooo                ..  ....XX",
"        ..OOooOOoo                                        ..  ..  ..XX....  ..  XXooXXXX    ..  ..                  ..XX..      ooOOoo                                                                        XX..                      ......XX....      ..OOOO....        OO        XXooooXXXXoooooo                ....    XX",
"      ..ooOOooOO                                          ..      XX..  ........  XXXXXX        ..                    ..oo..    ooOOOO..                                                                        XX..                      ......        ..OO....      ..oo  OOoo    ..XXXXoo..XXOO  oooo                ..    ..",
"    ....OOOO..OO                                          ..  ..  XX..  ..  ..    ......      ....                      ......  ..OOOOoo                                                                        ..XX..                                  OO....    ..XXXX      OOoo    ..ooXX..XXXXoo  oo                      ..",
"    XXXXoo  ..OO                                          ..  ....XX    ..    ..  ......      ..                        ....      ooOOOOoo                                                                        ..XX                                ..OO..      ..XX..      ooooOO  ..XXoo....XXoo  oo                    ..  ",
"  XXoooo    ..OO                                          ..  ......    ....    oo..oo..      ..                          ....    ooooOOOO                                                                        ..XX                              ..OO            XX....      ooooOOooXXXX....XXOO                        ..  ",
"  oooo      ..oo                                        ..    ..XX    ......    ooOO..      ....                          ....    ..ooOOOOoo                                                                    ..XX                              ..OO              ....          ooOOOOXXoo..XXXXoo                    ..  ..  ",
"oooo  XX    ..oo                                        ..    ..XX..  ..XX..    ooOOoo      ..                  ..          ....    ooOOOOoo                                                                    ..                            ......                XX..          ooOOOOXXXX....XXOO                      ..    ",
"oo  XX        oo                ..                      ..  ....XX    ..XX..    ..OO..      ..                              ....    ..OO..oooo                                                                ..                                                    XX..        oo  OOOOXXXX....OOOO                            ",
"oo  XX  ..    oo                                        ..  ....XX..  ..XX..    ..OOoo      ..                                ....  ..OO  ..oo                                                                ..                                                    XX            ..OOOOXXXX....OOOO                            ",
"          ..                                          ..  ......XX    ..XX..    ..ooOO    ....                                ....    OO    ......                                                              ..                                ..XXXXXXXXXX      ....    ..  ....OOOOXXXX..XXOOOOoo                          ",
"        ..XX..                                        ..  ..........  ..XX..      XXoo    ..                                    ....  ..oo    XX....                                                            ..                              ..XX..........XXXX  ..        ..XX..XXOOXXXX..XXOO  OO                      ....",
"    ..    ..                                          ..  ......XX    XX......    ooooXX  ..                                    ....    ..      OO....                                                            ..                          ..XX..        ......XX..  ..  ..........XXXXXX..XXOO    OO                  ..    ",
"        ..    ..                                      ..  ..........  XX....      XXooXX  ..            ..                        ..      oo    ooOO..                                                            ..            ..................                ....        ..  ......XXXXXXXXXX    OO                XX      ",
"      ..oo..                                          ..    ......    XX....      XXooXX  ..                                      ....          ooOOOO..                                                        ..          ....XXXXooooOOOOOOOO..                    ..    ..  ..  ..XXXXXX..XXXX      OO            XXXX      ",
"        ..                                            ..  ..  ......  XX..        XXooXX  ..                                        ..          ..ooOOOO..                                                                ..XXXXXXXXXXXXXXXXXXOOOOOOOOOOXX............  ..          ....XXXXXXXXXX      OOXX          XX        ",
"              ..                                    ..        ..      XX..        XXooXX....                                          ..          ooOOOOOO..                                                              ..XXXXXX............XXXXXXXXXXooooooooXX......    XX    ....XXXXoo..oo..        XXXX      ..XX        ",
"  ..  XX                                            ....    ......    XXXX        XXooXX......                                        ....        ..ooOOOOoo..                                                            ..XX....................................  ..  ..    XX  ....XXooooXXoo..          XXXX..  XX          ",
"          ..                                        ..        ..      XXXX        XXooXX....XX..                                        ....        ..ooOOOOoo                                                            ..XX..  ..        ................  ..  ..  ..      ooOO....OOooXXXXoo                ....            ",
"    ..    XX                                        ....    ......    XXXX        XXooXX......XX..                                        ....        ..ooOOOO..                                                        ..........                ......    ..                ooOOOO..OOooXX..XX                    ..          ",
"..      ..oo..                                      ..        ....    XXXX        XXooXX..    ..XX..                                        ....        ..ooOO..                                                        ........                                          ..  OOOO....OOXXXX....                      ..        ",
"          XX    XX                                  ..      ........  XXXX        XXooXX..    ....XX..                                        ....          ..OOoo                                                      ..  ..  ..                                        ..ooOO....XXOOXX......                                ",
"      XX  ..                                        ..          ..    XXXX        XXoo....      ....XX                                          ....          OOoo                                                      ....  ..                                  ..    ....OO......XXXXXX..XX..                                ",
"..                                                  ..        ....    ..XX        XXoo  ..        ....XX                                          ....        ..OOoo                                                    ..    ..                            ..  ..........ooOO..  ..XX......XX..                                ",
"        ..  ..                                      ....              ..XX        XXXX  ..          ....XX                                          ..          OOoo                                                    ....        ........      oo  oooo          ..  ..OOoo....  ........XX                                  ",
"      ..oo..                                        ....        ..    ..XX        XXXX  ..              ....                                          ..        ooOOoo                                                  ..          ..  ..  ..      oo    oo    ..    ..ooOO....  ..    ..XX..                            ..    ",
"        ..      XX  ..                              ....              ..XX..      XX..  ..                ....                                          ....    ooOOOO                                                  ..        ....                      oo  ..  ..ooOOoo..  ..  ..    XX                              ....  ",
"  ..        ..                                      ....              ....XX      XX....        ..          ....                                          ....  ..OOOOoo                                                ....      ..  ..oooooo..              oo  ..  ooOO....    ..    ..XX                                ..  ",
"..XX..  oo                                          ..XX                ..XX      oo....          ..        ......                                        ....  ..OOOOOO                                                  ..        ......XXXXooOO....        oooo  ooOO....            XX..                                ..  ",
"  ..                          ..                    ..XX..              ..XX      oo....            ..    ..........                ..                      ..    ooOOOOoo                                                ..          ......XXXXXXOOOO........  ooooOO..............  ..XX                                  ....",
"          ..  ..                                    ..XX..              ..XX      oo....            ..................                                      ..    ooOOOOoo                                                ....          ......XXXXXXXXOO............................XXXX..                                    ..",
"          oo                                        ..XX....            ....      oo....              ....  XXXXooXX..                                      ..    ..OOOOOO                                                  ....            ......XXXXXX..............ooXXXX....XXXX....                                      ..",
"    ..    ..                                          XX......            ..      oo....            ......  XXXX..ooXX..                                    ....  ..ooOOOO                                                  ....              ......XXXXXXoo        ......XXXXXXXX..  ..                                      ..",
"                                                      ..XX..  ..          ..      oo....                ..........ooooXX..                                    ..    ooOOOO                                                    ....                ............oo          ........    ..                                    ..  ",
"              ..                                      ..XX....            ....    oo....              ....XXXX......oooo....                                  ....    OOOO                                                    ......                    ........oooooo....        ..OOOO                                        ",
"        ..    ..                                        ..XX......        ....    oo......                ..XX  ....oooooo..                                    XXoo  oooo                                                      ......                          ......ooooOOoo  ..  ooooOO                                      ",
"            ..oo..                                      ..XXXX......        ..    oo....                ....XX  ......oooo....                                    oo  XXoo                                                        ......                            ....ooooOOoo....ooooOO                                      ",
"    ..        ..                                          ............      XX    oo..    ..              ....XX  ....oooooo..                                    XXoo..OO                                                            ......                          ....ooOOOO..  ..ooOO                                      ",
"      ..      ..                                                ........    XX    oo......  ..              ..ooXX  ....oooooo..                                    oo..OO                                                              ........                        ....ooOO......XXOO                                      ",
"    ..XX..                                                            ....  ..    oo....XX..  ..          ......XXXX......oooo..                                    XX..OO                                                                  ......        ..          ..  ..ooOO..  ..XXoo                                      ",
"      ..                                                                  ..XX    oo..  ..XX......          ....ooXX  ......oooo..                                      OO                                                                        ..........  ..XXXX    ....oo........XXoo                                      ",
"                                                                            XX    oo..    ..XXXX....          ..ooXXXX  ......oo..                                    ..OO                                                                                  ......XXXX..  ..oo......XXXXXX                                      ",
"                                                                            XX    oo..    ....XXXXXX..        ..XXooXX  ......oooo..                                    OO                                                                                        ..XX  ........  ..XXXXXX                                      ",
"                                                                          ..XX    oo..        ........          ..ooXXXX  ..XXOOOO..                                  ..oo                                                                                        ..XX..........  ....XXXX                                      ",
"                              ..                                          ..XX    oo..              ......        XXooXX....XXOOOO..                                  ..XX                                                                                          ..XX..  ............XX                                      ",
"                                                                        ......    oo..                  ....        ooXX  ..XXOOOOoo..                                ..XX                                                                                          ..XX    ......  ....XX                                      ",
"                          ..                                            ..  ..    XX..                    ......    XXoo......OOOOoo..                                  XX                                                                                          ..XX  ........  ....XX              XXXXXXXX  XXXX  XXXXXXXX",
"                                                                        ..  ..    XX......                      ..  ..oo  ....XXOOoo..                                                                                                                              ..      ..  ..    ..XX              oooo      oooo    oooo  ",
"                                            ..                          ..  ..    XX..    ....                    ..  oo........OOoo..                                                                                                                            ....      ..  ..    ....              XXXXXXXX  XXXX    XXXX  ",
"                          ..                                            ......    XX..        ......                ....  ......oooo..                                                                                                                            XX..    ..    ..    ....                  ....  ....    ....  ",
"                                      ..                                  ....    XX......          ....              ....  ....oo..                                                                                                              ..              XX..    ..  ....    ....    ..        ........  ....    ....  ",
"                                                                          ....    OO........            ......        ..  ..  ......                                                                                                                            ..XX    ..    ....    ....                                      ",
"                            ..      ..                                      ..    OO..  ....oo              ........    ..  ..  ..                                                                                                                      ..    ..XX..    ..    ..    ....                      ..                ",
"                                                                            ..    oo      ..oooo                  ..........  ..                                                                                                              ..            ..XX      ..    ....      ..    ..    ..      ..                ..  ",
"                                                        ..      ..        ....  ..oo      ....oooo                                                                                                                  ..            ..                  ..    XX..      ..    ....  ....        ......  ..    ..  ..    ..        ",
"                                      ..            ..                    ..    ..oooo      ....oo                                                                                                                                                ..    ..  XX....  ..        ....        ..  ..................    ..          ",
"                                        ....    ..        ..  ..  ..      ..      ooOO..  ....        ..  ......                ..        ..                                                                                ..        ..    ..      ....          ....                    ................  ..    ..    ..    ..",
"                                        ......................  ......  ..          ooOO....        ......  ........          ..  ..  ..        ..    ..                                                                                  ..  ..  ............                          ............  ..                        ",
"                                              ..  ..  ..............    ......  ..  oooooo                ........................  ..  ..  ..                                                                                                  ..  ............  ..  ..          ..  ........  ..                              "
};
