/* XPM */
static char * xlogo[] = {
"256 256 4 1",
". c #1a1a2e",
"A c #00b4d8",
"B c #ff6b35",
"C c #e63946",
"AAAAAAAAAAAAAAA...................................................................................................................................................................................................................................BBBBBBBBBBBBBB",
"AAAAAAAAAAAAAAAA.................................................................................................................................................................................................................................BBBBBBBBBBBBBBB",
"AAAAAAAAAAAAAAAAA...............................................................................................................................................................................................................................BBBBBBBBBBBBBBBB",
"AAAAAAAAAAAAAAAAAA.............................................................................................................................................................................................................................BBBBBBBBBBBBBBBBB",
"AAAAAAAAAAAAAAAAAAA...........................................................................................................................................................................................................................BBBBBBBBBBBBBBBBBB",
"AAAAAAAAAAAAAAAAAAAA.........................................................................................................................................................................................................................BBBBBBBBBBBBBBBBBBB",
"AAAAAAAAAAAAAAAAAAAAA.......................................................................................................................................................................................................................BBBBBBBBBBBBBBBBBBBB",
"AAAAAAAAAAAAAAAAAAAAAA.....................................................................................................................................................................................................................BBBBBBBBBBBBBBBBBBBBB",
"AAAAAAAAAAAAAAAAAAAAAAA...................................................................................................................................................................................................................BBBBBBBBBBBBBBBBBBBBBB",
"AAAAAAAAAAAAAAAAAAAAAAAA.................................................................................................................................................................................................................BBBBBBBBBBBBBBBBBBBBBBB",
"AAAAAAAAAAAAAAAAAAAAAAAAA...............................................................................................................................................................................................................BBBBBBBBBBBBBBBBBBBBBBBB",
"AAAAAAAAAAAAAAAAAAAAAAAAAA.............................................................................................................................................................................................................BBBBBBBBBBBBBBBBBBBBBBBBB",
"AAAAAAAAAAAAAAAAAAAAAAAAAAA...........................................................................................................................................................................................................BBBBBBBBBBBBBBBBBBBBBBBBBB",
"AAAAAAAAAAAAAAAAAAAAAAAAAAAA.........................................................................................................................................................................................................BBBBBBBBBBBBBBBBBBBBBBBBBBB",
"AAAAAAAAAAAAAAAAAAAAAAAAAAAAA.......................................................................................................................................................................................................BBBBBBBBBBBBBBBBBBBBBBBBBBBB",
".AAAAAAAAAAAAAAAAAAAAAAAAAAAAA.....................................................................................................................................................................................................BBBBBBBBBBBBBBBBBBBBBBBBBBBBB",
"..AAAAAAAAAAAAAAAAAAAAAAAAAAAAA...................................................................................................................................................................................................BBBBBBBBBBBBBBBBBBBBBBBBBBBBB.",
"...AAAAAAAAAAAAAAAAAAAAAAAAAAAAA.................................................................................................................................................................................................BBBBBBBBBBBBBBBBBBBBBBBBBBBBB..",
"....AAAAAAAAAAAAAAAAAAAAAAAAAAAAA...............................................................................................................................................................................................BBBBBBBBBBBBBBBBBBBBBBBBBBBBB...",
".....AAAAAAAAAAAAAAAAAAAAAAAAAAAAA.............................................................................................................................................................................................BBBBBBBBBBBBBBBBBBBBBBBBBBBBB....",
"......AAAAAAAAAAAAAAAAAAAAAAAAAAAAA...........................................................................................................................................................................................BBBBBBBBBBBBBBBBBBBBBBBBBBBBB.....",
".......AAAAAAAAAAAAAAAAAAAAAAAAAAAAA.........................................................................................................................................................................................BBBBBBBBBBBBBBBBBBBBBBBBBBBBB......",
"........AAAAAAAAAAAAAAAAAAAAAAAAAAAAA.......................................................................................................................................................................................BBBBBBBBBBBBBBBBBBBBBBBBBBBBB.......",
".........AAAAAAAAAAAAAAAAAAAAAAAAAAAAA.....................................................................................................................................................................................BBBBBBBBBBBBBBBBBBBBBBBBBBBBB........",
"..........AAAAAAAAAAAAAAAAAAAAAAAAAAAAA...................................................................................................................................................................................BBBBBBBBBBBBBBBBBBBBBBBBBBBBB.........",
"...........AAAAAAAAAAAAAAAAAAAAAAAAAAAAA.................................................................................................................................................................................BBBBBBBBBBBBBBBBBBBBBBBBBBBBB..........",
"............AAAAAAAAAAAAAAAAAAAAAAAAAAAAA...............................................................................................................................................................................BBBBBBBBBBBBBBBBBBBBBBBBBBBBB...........",
".............AAAAAAAAAAAAAAAAAAAAAAAAAAAAA.............................................................................................................................................................................BBBBBBBBBBBBBBBBBBBBBBBBBBBBB............",
"..............AAAAAAAAAAAAAAAAAAAAAAAAAAAAA...........................................................................................................................................................................BBBBBBBBBBBBBBBBBBBBBBBBBBBBB.............",
"...............AAAAAAAAAAAAAAAAAAAAAAAAAAAAA.........................................................................................................................................................................BBBBBBBBBBBBBBBBBBBBBBBBBBBBB..............",
"................AAAAAAAAAAAAAAAAAAAAAAAAAAAAA.......................................................................................................................................................................BBBBBBBBBBBBBBBBBBBBBBBBBBBBB...............",
".................AAAAAAAAAAAAAAAAAAAAAAAAAAAAA.....................................................................................................................................................................BBBBBBBBBBBBBBBBBBBBBBBBBBBBB................",
"..................AAAAAAAAAAAAAAAAAAAAAAAAAAAAA...................................................................................................................................................................BBBBBBBBBBBBBBBBBBBBBBBBBBBBB.................",
"...................AAAAAAAAAAAAAAAAAAAAAAAAAAAAA.................................................................................................................................................................BBBBBBBBBBBBBBBBBBBBBBBBBBBBB..................",
"....................AAAAAAAAAAAAAAAAAAAAAAAAAAAAA...............................................................................................................................................................BBBBBBBBBBBBBBBBBBBBBBBBBBBBB...................",
".....................AAAAAAAAAAAAAAAAAAAAAAAAAAAAA.............................................................................................................................................................BBBBBBBBBBBBBBBBBBBBBBBBBBBBB....................",
"......................AAAAAAAAAAAAAAAAAAAAAAAAAAAAA...........................................................................................................................................................BBBBBBBBBBBBBBBBBBBBBBBBBBBBB.....................",
".......................AAAAAAAAAAAAAAAAAAAAAAAAAAAAA.........................................................................................................................................................BBBBBBBBBBBBBBBBBBBBBBBBBBBBB......................",
"........................AAAAAAAAAAAAAAAAAAAAAAAAAAAAA.......................................................................................................................................................BBBBBBBBBBBBBBBBBBBBBBBBBBBBB.......................",
".........................AAAAAAAAAAAAAAAAAAAAAAAAAAAAA.....................................................................................................................................................BBBBBBBBBBBBBBBBBBBBBBBBBBBBB........................",
"..........................AAAAAAAAAAAAAAAAAAAAAAAAAAAAA...................................................................................................................................................BBBBBBBBBBBBBBBBBBBBBBBBBBBBB.........................",
"...........................AAAAAAAAAAAAAAAAAAAAAAAAAAAAA.................................................................................................................................................BBBBBBBBBBBBBBBBBBBBBBBBBBBBB..........................",
"............................AAAAAAAAAAAAAAAAAAAAAAAAAAAAA...............................................................................................................................................BBBBBBBBBBBBBBBBBBBBBBBBBBBBB...........................",
".............................AAAAAAAAAAAAAAAAAAAAAAAAAAAAA.............................................................................................................................................BBBBBBBBBBBBBBBBBBBBBBBBBBBBB............................",
"..............................AAAAAAAAAAAAAAAAAAAAAAAAAAAAA...........................................................................................................................................BBBBBBBBBBBBBBBBBBBBBBBBBBBBB.............................",
"...............................AAAAAAAAAAAAAAAAAAAAAAAAAAAAA.........................................................................................................................................BBBBBBBBBBBBBBBBBBBBBBBBBBBBB..............................",
"................................AAAAAAAAAAAAAAAAAAAAAAAAAAAAA.......................................................................................................................................BBBBBBBBBBBBBBBBBBBBBBBBBBBBB...............................",
".................................AAAAAAAAAAAAAAAAAAAAAAAAAAAAA.....................................................................................................................................BBBBBBBBBBBBBBBBBBBBBBBBBBBBB................................",
"..................................AAAAAAAAAAAAAAAAAAAAAAAAAAAAA...................................................................................................................................BBBBBBBBBBBBBBBBBBBBBBBBBBBBB.................................",
"...................................AAAAAAAAAAAAAAAAAAAAAAAAAAAAA.................................................................................................................................BBBBBBBBBBBBBBBBBBBBBBBBBBBBB..................................",
"....................................AAAAAAAAAAAAAAAAAAAAAAAAAAAAA...............................................................................................................................BBBBBBBBBBBBBBBBBBBBBBBBBBBBB...................................",
".....................................AAAAAAAAAAAAAAAAAAAAAAAAAAAAA.............................................................................................................................BBBBBBBBBBBBBBBBBBBBBBBBBBBBB....................................",
"......................................AAAAAAAAAAAAAAAAAAAAAAAAAAAAA...........................................................................................................................BBBBBBBBBBBBBBBBBBBBBBBBBBBBB.....................................",
".......................................AAAAAAAAAAAAAAAAAAAAAAAAAAAAA.........................................................................................................................BBBBBBBBBBBBBBBBBBBBBBBBBBBBB......................................",
"........................................AAAAAAAAAAAAAAAAAAAAAAAAAAAAA.......................................................................................................................BBBBBBBBBBBBBBBBBBBBBBBBBBBBB.......................................",
".........................................AAAAAAAAAAAAAAAAAAAAAAAAAAAAA.....................................................................................................................BBBBBBBBBBBBBBBBBBBBBBBBBBBBB........................................",
"..........................................AAAAAAAAAAAAAAAAAAAAAAAAAAAAA...................................................................................................................BBBBBBBBBBBBBBBBBBBBBBBBBBBBB.........................................",
"...........................................AAAAAAAAAAAAAAAAAAAAAAAAAAAAA.................................................................................................................BBBBBBBBBBBBBBBBBBBBBBBBBBBBB..........................................",
"............................................AAAAAAAAAAAAAAAAAAAAAAAAAAAAA...............................................................................................................BBBBBBBBBBBBBBBBBBBBBBBBBBBBB...........................................",
".............................................AAAAAAAAAAAAAAAAAAAAAAAAAAAAA.............................................................................................................BBBBBBBBBBBBBBBBBBBBBBBBBBBBB............................................",
"..............................................AAAAAAAAAAAAAAAAAAAAAAAAAAAAA...........................................................................................................BBBBBBBBBBBBBBBBBBBBBBBBBBBBB.............................................",
"...............................................AAAAAAAAAAAAAAAAAAAAAAAAAAAAA.........................................................................................................BBBBBBBBBBBBBBBBBBBBBBBBBBBBB..............................................",
"................................................AAAAAAAAAAAAAAAAAAAAAAAAAAAAA.......................................................................................................BBBBBBBBBBBBBBBBBBBBBBBBBBBBB...............................................",
".................................................AAAAAAAAAAAAAAAAAAAAAAAAAAAAA.....................................................................................................BBBBBBBBBBBBBBBBBBBBBBBBBBBBB................................................",
"..................................................AAAAAAAAAAAAAAAAAAAAAAAAAAAAA...................................................................................................BBBBBBBBBBBBBBBBBBBBBBBBBBBBB.................................................",
"...................................................AAAAAAAAAAAAAAAAAAAAAAAAAAAAA.................................................................................................BBBBBBBBBBBBBBBBBBBBBBBBBBBBB..................................................",
"....................................................AAAAAAAAAAAAAAAAAAAAAAAAAAAAA...............................................................................................BBBBBBBBBBBBBBBBBBBBBBBBBBBBB...................................................",
".....................................................AAAAAAAAAAAAAAAAAAAAAAAAAAAAA.............................................................................................BBBBBBBBBBBBBBBBBBBBBBBBBBBBB....................................................",
"......................................................AAAAAAAAAAAAAAAAAAAAAAAAAAAAA...........................................................................................BBBBBBBBBBBBBBBBBBBBBBBBBBBBB.....................................................",
".......................................................AAAAAAAAAAAAAAAAAAAAAAAAAAAAA.........................................................................................BBBBBBBBBBBBBBBBBBBBBBBBBBBBB......................................................",
"........................................................AAAAAAAAAAAAAAAAAAAAAAAAAAAAA.......................................................................................BBBBBBBBBBBBBBBBBBBBBBBBBBBBB.......................................................",
".........................................................AAAAAAAAAAAAAAAAAAAAAAAAAAAAA.....................................................................................BBBBBBBBBBBBBBBBBBBBBBBBBBBBB........................................................",
"..........................................................AAAAAAAAAAAAAAAAAAAAAAAAAAAAA...................................................................................BBBBBBBBBBBBBBBBBBBBBBBBBBBBB.........................................................",
"...........................................................AAAAAAAAAAAAAAAAAAAAAAAAAAAAA.................................................................................BBBBBBBBBBBBBBBBBBBBBBBBBBBBB..........................................................",
"............................................................AAAAAAAAAAAAAAAAAAAAAAAAAAAAA...............................................................................BBBBBBBBBBBBBBBBBBBBBBBBBBBBB...........................................................",
".............................................................AAAAAAAAAAAAAAAAAAAAAAAAAAAAA.............................................................................BBBBBBBBBBBBBBBBBBBBBBBBBBBBB............................................................",
"..............................................................AAAAAAAAAAAAAAAAAAAAAAAAAAAAA...........................................................................BBBBBBBBBBBBBBBBBBBBBBBBBBBBB.............................................................",
"...............................................................AAAAAAAAAAAAAAAAAAAAAAAAAAAAA.........................................................................BBBBBBBBBBBBBBBBBBBBBBBBBBBBB..............................................................",
"................................................................AAAAAAAAAAAAAAAAAAAAAAAAAAAAA.......................................................................BBBBBBBBBBBBBBBBBBBBBBBBBBBBB...............................................................",
".................................................................AAAAAAAAAAAAAAAAAAAAAAAAAAAAA.....................................................................BBBBBBBBBBBBBBBBBBBBBBBBBBBBB................................................................",
"..................................................................AAAAAAAAAAAAAAAAAAAAAAAAAAAAA...................................................................BBBBBBBBBBBBBBBBBBBBBBBBBBBBB.................................................................",
"...................................................................AAAAAAAAAAAAAAAAAAAAAAAAAAAAA.................................................................BBBBBBBBBBBBBBBBBBBBBBBBBBBBB..................................................................",
"....................................................................AAAAAAAAAAAAAAAAAAAAAAAAAAAAA...............................................................BBBBBBBBBBBBBBBBBBBBBBBBBBBBB...................................................................",
".....................................................................AAAAAAAAAAAAAAAAAAAAAAAAAAAAA.............................................................BBBBBBBBBBBBBBBBBBBBBBBBBBBBB....................................................................",
"......................................................................AAAAAAAAAAAAAAAAAAAAAAAAAAAAA...........................................................BBBBBBBBBBBBBBBBBBBBBBBBBBBBB.....................................................................",
".......................................................................AAAAAAAAAAAAAAAAAAAAAAAAAAAAA.........................................................BBBBBBBBBBBBBBBBBBBBBBBBBBBBB......................................................................",
"........................................................................AAAAAAAAAAAAAAAAAAAAAAAAAAAAA.......................................................BBBBBBBBBBBBBBBBBBBBBBBBBBBBB.......................................................................",
".........................................................................AAAAAAAAAAAAAAAAAAAAAAAAAAAAA.....................................................BBBBBBBBBBBBBBBBBBBBBBBBBBBBB........................................................................",
"..........................................................................AAAAAAAAAAAAAAAAAAAAAAAAAAAAA...................................................BBBBBBBBBBBBBBBBBBBBBBBBBBBBB.........................................................................",
"...........................................................................AAAAAAAAAAAAAAAAAAAAAAAAAAAAA.................................................BBBBBBBBBBBBBBBBBBBBBBBBBBBBB..........................................................................",
"............................................................................AAAAAAAAAAAAAAAAAAAAAAAAAAAAA...............................................BBBBBBBBBBBBBBBBBBBBBBBBBBBBB...........................................................................",
".............................................................................AAAAAAAAAAAAAAAAAAAAAAAAAAAAA.............................................BBBBBBBBBBBBBBBBBBBBBBBBBBBBB............................................................................",
"..............................................................................AAAAAAAAAAAAAAAAAAAAAAAAAAAAA...........................................BBBBBBBBBBBBBBBBBBBBBBBBBBBBB.............................................................................",
"...............................................................................AAAAAAAAAAAAAAAAAAAAAAAAAAAAA.........................................BBBBBBBBBBBBBBBBBBBBBBBBBBBBB..............................................................................",
"................................................................................AAAAAAAAAAAAAAAAAAAAAAAAAAAAA.......................................BBBBBBBBBBBBBBBBBBBBBBBBBBBBB...............................................................................",
".................................................................................AAAAAAAAAAAAAAAAAAAAAAAAAAAAA.....................................BBBBBBBBBBBBBBBBBBBBBBBBBBBBB................................................................................",
"..................................................................................AAAAAAAAAAAAAAAAAAAAAAAAAAAAA...................................BBBBBBBBBBBBBBBBBBBBBBBBBBBBB.................................................................................",
"...................................................................................AAAAAAAAAAAAAAAAAAAAAAAAAAAAA.................................BBBBBBBBBBBBBBBBBBBBBBBBBBBBB..................................................................................",
"....................................................................................AAAAAAAAAAAAAAAAAAAAAAAAAAAAA...............................BBBBBBBBBBBBBBBBBBBBBBBBBBBBB...................................................................................",
".....................................................................................AAAAAAAAAAAAAAAAAAAAAAAAAAAAA.............................BBBBBBBBBBBBBBBBBBBBBBBBBBBBB....................................................................................",
"......................................................................................AAAAAAAAAAAAAAAAAAAAAAAAAAAAA...........................BBBBBBBBBBBBBBBBBBBBBBBBBBBBB.....................................................................................",
".......................................................................................AAAAAAAAAAAAAAAAAAAAAAAAAAAAA.........................BBBBBBBBBBBBBBBBBBBBBBBBBBBBB......................................................................................",
"........................................................................................AAAAAAAAAAAAAAAAAAAAAAAAAAAAA.......................BBBBBBBBBBBBBBBBBBBBBBBBBBBBB.......................................................................................",
".........................................................................................AAAAAAAAAAAAAAAAAAAAAAAAAAAAA.....................BBBBBBBBBBBBBBBBBBBBBBBBBBBBB........................................................................................",
"..........................................................................................AAAAAAAAAAAAAAAAAAAAAAAAAAAAA...................BBBBBBBBBBBBBBBBBBBBBBBBBBBBB.........................................................................................",
"...........................................................................................AAAAAAAAAAAAAAAAAAAAAAAAAAAAA.................BBBBBBBBBBBBBBBBBBBBBBBBBBBBB..........................................................................................",
"............................................................................................AAAAAAAAAAAAAAAAAAAAAAAAAAAAA...............BBBBBBBBBBBBBBBBBBBBBBBBBBBBB...........................................................................................",
".............................................................................................AAAAAAAAAAAAAAAAAAAAAAAAAAAAA.............BBBBBBBBBBBBBBBBBBBBBBBBBBBBB............................................................................................",
"..............................................................................................AAAAAAAAAAAAAAAAAAAAAAAAAAAAA...........BBBBBBBBBBBBBBBBBBBBBBBBBBBBB.............................................................................................",
"...............................................................................................AAAAAAAAAAAAAAAAAAAAAAAAAAAAA.........BBBBBBBBBBBBBBBBBBBBBBBBBBBBB..............................................................................................",
"................................................................................................AAAAAAAAAAAAAAAAAAAAAAAAAAAAA.......BBBBBBBBBBBBBBBBBBBBBBBBBBBBB...............................................................................................",
".................................................................................................AAAAAAAAAAAAAAAAAAAAAAAAAAAAA.....BBBBBBBBBBBBBBBBBBBBBBBBBBBBB................................................................................................",
"..................................................................................................AAAAAAAAAAAAAAAAAAAAAAAAAAAAA...BBBBBBBBBBBBBBBBBBBBBBBBBBBBB.................................................................................................",
"...................................................................................................AAAAAAAAAAAAAAAAAAAAAAAAAAAAA.BBBBBBBBBBBBBBBBBBBBBBBBBBBBB..................................................................................................",
"....................................................................................................AAAAAAAAAAAAAAAAAAAAAAAAACCCCCCCBBBBBBBBBBBBBBBBBBBBBBBBB...................................................................................................",
".....................................................................................................AAAAAAAAAAAAAAAAAAAAACCCCCCCCCCCCCBBBBBBBBBBBBBBBBBBBBB....................................................................................................",
"......................................................................................................AAAAAAAAAAAAAAAAAAACCCCCCCCCCCCCCCBBBBBBBBBBBBBBBBBBB.....................................................................................................",
".......................................................................................................AAAAAAAAAAAAAAAACCCCCCCCCCCCCCCCCCCBBBBBBBBBBBBBBBB......................................................................................................",
"........................................................................................................AAAAAAAAAAAAAACCCCCCCCCCCCCCCCCCCCCBBBBBBBBBBBBBB.......................................................................................................",
".........................................................................................................AAAAAAAAAAAACCCCCCCCCCCCCCCCCCCCCCCBBBBBBBBBBBB........................................................................................................",
"..........................................................................................................AAAAAAAAAAACCCCCCCCCCCCCCCCCCCCCCCBBBBBBBBBBB.........................................................................................................",
"...........................................................................................................AAAAAAAAACCCCCCCCCCCCCCCCCCCCCCCCCBBBBBBBBB..........................................................................................................",
"............................................................................................................AAAAAAACCCCCCCCCCCCCCCCCCCCCCCCCCCBBBBBBB...........................................................................................................",
".............................................................................................................AAAAAACCCCCCCCCCCCCCCCCCCCCCCCCCCBBBBBB............................................................................................................",
"..............................................................................................................AAAAACCCCCCCCCCCCCCCCCCCCCCCCCCCBBBBB.............................................................................................................",
"...............................................................................................................AAACCCCCCCCCCCCCCCCCCCCCCCCCCCCCBBB..............................................................................................................",
"................................................................................................................AACCCCCCCCCCCCCCCCCCCCCCCCCCCCCBB...............................................................................................................",
".................................................................................................................ACCCCCCCCCCCCCCCCCCCCCCCCCCCCCB................................................................................................................",
"..................................................................................................................CCCCCCCCCCCCCCCCCCCCCCCCCCCCC.................................................................................................................",
".................................................................................................................BCCCCCCCCCCCCCCCCCCCCCCCCCCCCCA................................................................................................................",
"................................................................................................................BBCCCCCCCCCCCCCCCCCCCCCCCCCCCCCAA...............................................................................................................",
"...............................................................................................................BBBCCCCCCCCCCCCCCCCCCCCCCCCCCCCCAAA..............................................................................................................",
"..............................................................................................................BBBBBCCCCCCCCCCCCCCCCCCCCCCCCCCCAAAAA.............................................................................................................",
".............................................................................................................BBBBBBCCCCCCCCCCCCCCCCCCCCCCCCCCCAAAAAA............................................................................................................",
"............................................................................................................BBBBBBBCCCCCCCCCCCCCCCCCCCCCCCCCCCAAAAAAA...........................................................................................................",
"...........................................................................................................BBBBBBBBBCCCCCCCCCCCCCCCCCCCCCCCCCAAAAAAAAA..........................................................................................................",
"..........................................................................................................BBBBBBBBBBBCCCCCCCCCCCCCCCCCCCCCCCAAAAAAAAAAA.........................................................................................................",
".........................................................................................................BBBBBBBBBBBBCCCCCCCCCCCCCCCCCCCCCCCAAAAAAAAAAAA........................................................................................................",
"........................................................................................................BBBBBBBBBBBBBBCCCCCCCCCCCCCCCCCCCCCAAAAAAAAAAAAAA.......................................................................................................",
".......................................................................................................BBBBBBBBBBBBBBBBCCCCCCCCCCCCCCCCCCCAAAAAAAAAAAAAAAA......................................................................................................",
"......................................................................................................BBBBBBBBBBBBBBBBBBBCCCCCCCCCCCCCCCAAAAAAAAAAAAAAAAAAA.....................................................................................................",
".....................................................................................................BBBBBBBBBBBBBBBBBBBBBCCCCCCCCCCCCCAAAAAAAAAAAAAAAAAAAAA....................................................................................................",
"....................................................................................................BBBBBBBBBBBBBBBBBBBBBBBBBCCCCCCCAAAAAAAAAAAAAAAAAAAAAAAAA...................................................................................................",
"...................................................................................................BBBBBBBBBBBBBBBBBBBBBBBBBBBBB.AAAAAAAAAAAAAAAAAAAAAAAAAAAAA..................................................................................................",
"..................................................................................................BBBBBBBBBBBBBBBBBBBBBBBBBBBBB...AAAAAAAAAAAAAAAAAAAAAAAAAAAAA.................................................................................................",
".................................................................................................BBBBBBBBBBBBBBBBBBBBBBBBBBBBB.....AAAAAAAAAAAAAAAAAAAAAAAAAAAAA................................................................................................",
"................................................................................................BBBBBBBBBBBBBBBBBBBBBBBBBBBBB.......AAAAAAAAAAAAAAAAAAAAAAAAAAAAA...............................................................................................",
"...............................................................................................BBBBBBBBBBBBBBBBBBBBBBBBBBBBB.........AAAAAAAAAAAAAAAAAAAAAAAAAAAAA..............................................................................................",
"..............................................................................................BBBBBBBBBBBBBBBBBBBBBBBBBBBBB...........AAAAAAAAAAAAAAAAAAAAAAAAAAAAA.............................................................................................",
".............................................................................................BBBBBBBBBBBBBBBBBBBBBBBBBBBBB.............AAAAAAAAAAAAAAAAAAAAAAAAAAAAA............................................................................................",
"............................................................................................BBBBBBBBBBBBBBBBBBBBBBBBBBBBB...............AAAAAAAAAAAAAAAAAAAAAAAAAAAAA...........................................................................................",
"...........................................................................................BBBBBBBBBBBBBBBBBBBBBBBBBBBBB.................AAAAAAAAAAAAAAAAAAAAAAAAAAAAA..........................................................................................",
"..........................................................................................BBBBBBBBBBBBBBBBBBBBBBBBBBBBB...................AAAAAAAAAAAAAAAAAAAAAAAAAAAAA.........................................................................................",
".........................................................................................BBBBBBBBBBBBBBBBBBBBBBBBBBBBB.....................AAAAAAAAAAAAAAAAAAAAAAAAAAAAA........................................................................................",
"........................................................................................BBBBBBBBBBBBBBBBBBBBBBBBBBBBB.......................AAAAAAAAAAAAAAAAAAAAAAAAAAAAA.......................................................................................",
".......................................................................................BBBBBBBBBBBBBBBBBBBBBBBBBBBBB.........................AAAAAAAAAAAAAAAAAAAAAAAAAAAAA......................................................................................",
"......................................................................................BBBBBBBBBBBBBBBBBBBBBBBBBBBBB...........................AAAAAAAAAAAAAAAAAAAAAAAAAAAAA.....................................................................................",
".....................................................................................BBBBBBBBBBBBBBBBBBBBBBBBBBBBB.............................AAAAAAAAAAAAAAAAAAAAAAAAAAAAA....................................................................................",
"....................................................................................BBBBBBBBBBBBBBBBBBBBBBBBBBBBB...............................AAAAAAAAAAAAAAAAAAAAAAAAAAAAA...................................................................................",
"...................................................................................BBBBBBBBBBBBBBBBBBBBBBBBBBBBB.................................AAAAAAAAAAAAAAAAAAAAAAAAAAAAA..................................................................................",
"..................................................................................BBBBBBBBBBBBBBBBBBBBBBBBBBBBB...................................AAAAAAAAAAAAAAAAAAAAAAAAAAAAA.................................................................................",
".................................................................................BBBBBBBBBBBBBBBBBBBBBBBBBBBBB.....................................AAAAAAAAAAAAAAAAAAAAAAAAAAAAA................................................................................",
"................................................................................BBBBBBBBBBBBBBBBBBBBBBBBBBBBB.......................................AAAAAAAAAAAAAAAAAAAAAAAAAAAAA...............................................................................",
"...............................................................................BBBBBBBBBBBBBBBBBBBBBBBBBBBBB.........................................AAAAAAAAAAAAAAAAAAAAAAAAAAAAA..............................................................................",
"..............................................................................BBBBBBBBBBBBBBBBBBBBBBBBBBBBB...........................................AAAAAAAAAAAAAAAAAAAAAAAAAAAAA.............................................................................",
".............................................................................BBBBBBBBBBBBBBBBBBBBBBBBBBBBB.............................................AAAAAAAAAAAAAAAAAAAAAAAAAAAAA............................................................................",
"............................................................................BBBBBBBBBBBBBBBBBBBBBBBBBBBBB...............................................AAAAAAAAAAAAAAAAAAAAAAAAAAAAA...........................................................................",
"...........................................................................BBBBBBBBBBBBBBBBBBBBBBBBBBBBB.................................................AAAAAAAAAAAAAAAAAAAAAAAAAAAAA..........................................................................",
"..........................................................................BBBBBBBBBBBBBBBBBBBBBBBBBBBBB...................................................AAAAAAAAAAAAAAAAAAAAAAAAAAAAA.........................................................................",
".........................................................................BBBBBBBBBBBBBBBBBBBBBBBBBBBBB.....................................................AAAAAAAAAAAAAAAAAAAAAAAAAAAAA........................................................................",
"........................................................................BBBBBBBBBBBBBBBBBBBBBBBBBBBBB.......................................................AAAAAAAAAAAAAAAAAAAAAAAAAAAAA.......................................................................",
".......................................................................BBBBBBBBBBBBBBBBBBBBBBBBBBBBB.........................................................AAAAAAAAAAAAAAAAAAAAAAAAAAAAA......................................................................",
"......................................................................BBBBBBBBBBBBBBBBBBBBBBBBBBBBB...........................................................AAAAAAAAAAAAAAAAAAAAAAAAAAAAA.....................................................................",
".....................................................................BBBBBBBBBBBBBBBBBBBBBBBBBBBBB.............................................................AAAAAAAAAAAAAAAAAAAAAAAAAAAAA....................................................................",
"....................................................................BBBBBBBBBBBBBBBBBBBBBBBBBBBBB...............................................................AAAAAAAAAAAAAAAAAAAAAAAAAAAAA...................................................................",
"...................................................................BBBBBBBBBBBBBBBBBBBBBBBBBBBBB.................................................................AAAAAAAAAAAAAAAAAAAAAAAAAAAAA..................................................................",
"..................................................................BBBBBBBBBBBBBBBBBBBBBBBBBBBBB...................................................................AAAAAAAAAAAAAAAAAAAAAAAAAAAAA.................................................................",
".................................................................BBBBBBBBBBBBBBBBBBBBBBBBBBBBB.....................................................................AAAAAAAAAAAAAAAAAAAAAAAAAAAAA................................................................",
"................................................................BBBBBBBBBBBBBBBBBBBBBBBBBBBBB.......................................................................AAAAAAAAAAAAAAAAAAAAAAAAAAAAA...............................................................",
"...............................................................BBBBBBBBBBBBBBBBBBBBBBBBBBBBB.........................................................................AAAAAAAAAAAAAAAAAAAAAAAAAAAAA..............................................................",
"..............................................................BBBBBBBBBBBBBBBBBBBBBBBBBBBBB...........................................................................AAAAAAAAAAAAAAAAAAAAAAAAAAAAA.............................................................",
".............................................................BBBBBBBBBBBBBBBBBBBBBBBBBBBBB.............................................................................AAAAAAAAAAAAAAAAAAAAAAAAAAAAA............................................................",
"............................................................BBBBBBBBBBBBBBBBBBBBBBBBBBBBB...............................................................................AAAAAAAAAAAAAAAAAAAAAAAAAAAAA...........................................................",
"...........................................................BBBBBBBBBBBBBBBBBBBBBBBBBBBBB.................................................................................AAAAAAAAAAAAAAAAAAAAAAAAAAAAA..........................................................",
"..........................................................BBBBBBBBBBBBBBBBBBBBBBBBBBBBB...................................................................................AAAAAAAAAAAAAAAAAAAAAAAAAAAAA.........................................................",
".........................................................BBBBBBBBBBBBBBBBBBBBBBBBBBBBB.....................................................................................AAAAAAAAAAAAAAAAAAAAAAAAAAAAA........................................................",
"........................................................BBBBBBBBBBBBBBBBBBBBBBBBBBBBB.......................................................................................AAAAAAAAAAAAAAAAAAAAAAAAAAAAA.......................................................",
".......................................................BBBBBBBBBBBBBBBBBBBBBBBBBBBBB.........................................................................................AAAAAAAAAAAAAAAAAAAAAAAAAAAAA......................................................",
"......................................................BBBBBBBBBBBBBBBBBBBBBBBBBBBBB...........................................................................................AAAAAAAAAAAAAAAAAAAAAAAAAAAAA.....................................................",
".....................................................BBBBBBBBBBBBBBBBBBBBBBBBBBBBB.............................................................................................AAAAAAAAAAAAAAAAAAAAAAAAAAAAA....................................................",
"....................................................BBBBBBBBBBBBBBBBBBBBBBBBBBBBB...............................................................................................AAAAAAAAAAAAAAAAAAAAAAAAAAAAA...................................................",
"...................................................BBBBBBBBBBBBBBBBBBBBBBBBBBBBB.................................................................................................AAAAAAAAAAAAAAAAAAAAAAAAAAAAA..................................................",
"..................................................BBBBBBBBBBBBBBBBBBBBBBBBBBBBB...................................................................................................AAAAAAAAAAAAAAAAAAAAAAAAAAAAA.................................................",
".................................................BBBBBBBBBBBBBBBBBBBBBBBBBBBBB.....................................................................................................AAAAAAAAAAAAAAAAAAAAAAAAAAAAA................................................",
"................................................BBBBBBBBBBBBBBBBBBBBBBBBBBBBB.......................................................................................................AAAAAAAAAAAAAAAAAAAAAAAAAAAAA...............................................",
"...............................................BBBBBBBBBBBBBBBBBBBBBBBBBBBBB.........................................................................................................AAAAAAAAAAAAAAAAAAAAAAAAAAAAA..............................................",
"..............................................BBBBBBBBBBBBBBBBBBBBBBBBBBBBB...........................................................................................................AAAAAAAAAAAAAAAAAAAAAAAAAAAAA.............................................",
".............................................BBBBBBBBBBBBBBBBBBBBBBBBBBBBB.............................................................................................................AAAAAAAAAAAAAAAAAAAAAAAAAAAAA............................................",
"............................................BBBBBBBBBBBBBBBBBBBBBBBBBBBBB...............................................................................................................AAAAAAAAAAAAAAAAAAAAAAAAAAAAA...........................................",
"...........................................BBBBBBBBBBBBBBBBBBBBBBBBBBBBB.................................................................................................................AAAAAAAAAAAAAAAAAAAAAAAAAAAAA..........................................",
"..........................................BBBBBBBBBBBBBBBBBBBBBBBBBBBBB...................................................................................................................AAAAAAAAAAAAAAAAAAAAAAAAAAAAA.........................................",
".........................................BBBBBBBBBBBBBBBBBBBBBBBBBBBBB.....................................................................................................................AAAAAAAAAAAAAAAAAAAAAAAAAAAAA........................................",
"........................................BBBBBBBBBBBBBBBBBBBBBBBBBBBBB.......................................................................................................................AAAAAAAAAAAAAAAAAAAAAAAAAAAAA.......................................",
".......................................BBBBBBBBBBBBBBBBBBBBBBBBBBBBB.........................................................................................................................AAAAAAAAAAAAAAAAAAAAAAAAAAAAA......................................",
"......................................BBBBBBBBBBBBBBBBBBBBBBBBBBBBB.............................................BBBBBBBB........BBBBBBBB......................................................AAAAAAAAAAAAAAAAAAAAAAAAAAAAA.....................................",
".....................................BBBBBBBBBBBBBBBBBBBBBBBBBBBBBBBBBBBBBB......CBBBBBBBB......................BBBBBBBB........BBBBBBBB.......................................................AAAAAAAAAAAAAAAAAAAAAAAAAAAAA....................................",
"....................................BBBBBBBBBBBBBBBBBBBBBBBBBBBBBBBBBBBBBBC......CBBBBBBBB......................BBBBBBBB........BBBBBBBB........................................................AAAAAAAAAAAAAAAAAAAAAAAAAAAAA...................................",
"...................................BBBBBBBBBBBBBBBBBBBBBBBBBBBBBCBBBBBBBBB.......CBBBBBBBB......................BBBBBBBB........BBBBBBBB.........................................................AAAAAAAAAAAAAAAAAAAAAAAAAAAAA..................................",
"..................................BBBBBBBBBBBBBBBBBBBBBBBBBBBBB.BBBBBBBBB........CBBBBBBBB......................BBBBBBBB........BBBBBBBB..........................................................AAAAAAAAAAAAAAAAAAAAAAAAAAAAA.................................",
".................................BBBBBBBBBBBBBBBBBBBBBBBBBBBBB.BBBBBBBBBC........CBBBBBBBB......................BBBBBBBB........BBBBBBBB...........................................................AAAAAAAAAAAAAAAAAAAAAAAAAAAAA................................",
"................................BBBBBBBBBBBBBBBBBBBBBBBBBBBBB.CBBBBBBBBB.........CBBBBBBBB......................BBBBBBBB........BBBBBBBB............................................................AAAAAAAAAAAAAAAAAAAAAAAAAAAAA...............................",
"...............................BBBBBBBBBBBBBBBBBBBBBBBBBBBBB..BBBBBBBBB..........CBBBBBBBB......................................BBBBBBBB.............................................................AAAAAAAAAAAAAAAAAAAAAAAAAAAAA..............................",
"..............................BBBBBBBBBBBBBBBBBBBBBBBBBBBBB..BBBBBBBBBC..........CBBBBBBBB......................................BBBBBBBB..............................................................AAAAAAAAAAAAAAAAAAAAAAAAAAAAA.............................",
".............................BBBBBBBBBBBBBBBBBBBBBBBBBBBBB..CBBBBBBBBB...........CBBBBBBBB......................................BBBBBBBB......CBBBBC............................CBBBB.............CBBBBAAAAAAAAAAAAAAAAAAAAAAAAAAAAA............................",
"............................BBBBBBBBBBBBBBBBBBBBBBBBBBBBB...BBBBBBBBB............CBBBBBBBB......................BBBBBBBB........BBBBBBBB...CBBBBBBBBBB............BBBBBBBB....BBBBBBBC.........CBBBBBBBBBBBBAAAAAAAAAAAAAAAAAAAAAAAAA...........................",
"...........................BBBBBBBBBBBBBBBBBBBBBBBBBBBBBBB.BBBBBBBBB.............CBBBBBBBB......................BBBBBBBB........BBBBBBBB..BBBBBBBBBBBBBC..........BBBBBBBB..CBBBBBBBBC........BBBBBBBBBBBBBBBBAAAAAAAAAAAAAAAAAAAAAAAA..........................",
"..........................BBBBBBBBBBBBBBBBBBBBBBBBBBBBBBBBBBBBBBBBBB.............CBBBBBBBB......................BBBBBBBB........BBBBBBBBCBBBBBBBBBBBBBBBC.........BBBBBBBB.CBBBBBBBBBC......CBBBBBBBBBBBBBBBBBBBAAAAAAAAAAAAAAAAAAAAAAA.........................",
".........................BBBBBBBBBBBBBBBBBBBBBBBBBBBBBBBBBBBBBBBBBB..............CBBBBBBBB......................BBBBBBBB........BBBBBBBBBBBBBBBBBBBBBBBBB.........BBBBBBBBCBBBBBBBBBBC.....CBBBBBBBBBBBBBBBBBBBBBAAAAAAAAAAAAAAAAAAAAAAA........................",
"........................BBBBBBBBBBBBBBBBBBBBBBBBBBBBBBBBBBBBBBBBBB...............CBBBBBBBB......................BBBBBBBB........BBBBBBBBBBBBBBBBBBBBBBBBBB........BBBBBBBBBBBBBBBBBBBC....CBBBBBBBBBBBBBBBBBBBBBBAAAAAAAAAAAAAAAAAAAAAAAA.......................",
".......................BBBBBBBBBBBBBBBBBBBBBBBBBBBBBBBBBBBBBBBBBBC...............CBBBBBBBB......................BBBBBBBB........BBBBBBBBBBBC....CBBBBBBBBBC.......BBBBBBBBBBBBC.....CC....BBBBBBBBBC.....BBBBBBBBBAAAAAAAAAAAAAAAAAAAAAAAA......................",
"......................BBBBBBBBBBBBBBBBBBBBBBBBBBBBB.BBBBBBBBBBBBB................CBBBBBBBB......................BBBBBBBB........BBBBBBBBBB........BBBBBBBBB.......BBBBBBBBBBB............CBBBBBBBB........CBBBBBBBBAAAAAAAAAAAAAAAAAAAAAAAA.....................",
".....................BBBBBBBBBBBBBBBBBBBBBBBBBBBBB...BBBBBBBBBBB.................CBBBBBBBB......................BBBBBBBB........BBBBBBBBBC........CBBBBBBBB.......BBBBBBBBBB.............BBBBBBBBC.........BBBBBBBBAAAAAAAAAAAAAAAAAAAAAAAAA....................",
"....................BBBBBBBBBBBBBBBBBBBBBBBBBBBBB....BBBBBBBBBBB.................CBBBBBBBB......................BBBBBBBB........BBBBBBBBB..........BBBBBBBBC......BBBBBBBBB..............BBBBBBBB..........CBBBBBBBAAAAAAAAAAAAAAAAAAAAAAAAAA...................",
"...................BBBBBBBBBBBBBBBBBBBBBBBBBBBBB....BBBBBBBBBBBBB................CBBBBBBBB......................BBBBBBBB........BBBBBBBBB..........BBBBBBBBB......BBBBBBBBB.............CBBBBBBBB...........BBBBBBBAAAAAAAAAAAAAAAAAAAAAAAAAAA..................",
"..................BBBBBBBBBBBBBBBBBBBBBBBBBBBBB....CBBBBBBBBBBBBBC...............CBBBBBBBB......................BBBBBBBB........BBBBBBBBC..........CBBBBBBBB......BBBBBBBBC.............BBBBBBBBBBBBBBBBBBBBBBBBBBBBAAAAAAAAAAAAAAAAAAAAAAAAAAA.................",
".................BBBBBBBBBBBBBBBBBBBBBBBBBBBBB.....BBBBBBBBBBBBBBB...............CBBBBBBBB......................BBBBBBBB........BBBBBBBBC..........CBBBBBBBB......BBBBBBBBC.............BBBBBBBBBBBBBBBBBBBBBBBBBBBBAAAAAAAAAAAAAAAAAAAAAAAAAAAA................",
"................BBBBBBBBBBBBBBBBBBBBBBBBBBBBB.....BBBBBBBBBBBBBBBBB..............CBBBBBBBB......................BBBBBBBB........BBBBBBBB...........CBBBBBBBB......BBBBBBBBC.............BBBBBBBBBBBBBBBBBBBBBBBBBBBBAAAAAAAAAAAAAAAAAAAAAAAAAAAAA...............",
"...............BBBBBBBBBBBBBBBBBBBBBBBBBBBBB.....CBBBBBBBBBBBBBBBBBC.............CBBBBBBBB......................BBBBBBBB........BBBBBBBB...........CBBBBBBBB......BBBBBBBB..............BBBBBBBBBBBBBBBBBBBBBBBBBBBB.AAAAAAAAAAAAAAAAAAAAAAAAAAAAA..............",
"..............BBBBBBBBBBBBBBBBBBBBBBBBBBBBB......BBBBBBBBB.BBBBBBBBB.............CBBBBBBBB......................BBBBBBBB........BBBBBBBBC..........CBBBBBBBB......BBBBBBBB..............BBBBBBBBBBBBBBBBBBBBBBBBBBBB..AAAAAAAAAAAAAAAAAAAAAAAAAAAAA.............",
".............BBBBBBBBBBBBBBBBBBBBBBBBBBBBB......BBBBBBBBBC.CBBBBBBBBB............CBBBBBBBB......................BBBBBBBB........BBBBBBBBC..........CBBBBBBBB......BBBBBBBB..............BBBBBBBBC......................AAAAAAAAAAAAAAAAAAAAAAAAAAAAA............",
"............BBBBBBBBBBBBBBBBBBBBBBBBBBBBB......CBBBBBBBBB...BBBBBBBBBC...........CBBBBBBBB......................BBBBBBBB........BBBBBBBBB..........BBBBBBBBB......BBBBBBBB..............CBBBBBBBB.......................AAAAAAAAAAAAAAAAAAAAAAAAAAAAA...........",
"...........BBBBBBBBBBBBBBBBBBBBBBBBBBBBB.......BBBBBBBBB.....BBBBBBBBB...........CBBBBBBBB......................BBBBBBBB........BBBBBBBBB..........BBBBBBBBC......BBBBBBBB...............BBBBBBBB........................AAAAAAAAAAAAAAAAAAAAAAAAAAAAA..........",
"..........BBBBBBBBBBBBBBBBBBBBBBBBBBBBB.......BBBBBBBBB......CBBBBBBBBB..........CBBBBBBBB......................BBBBBBBB........BBBBBBBBBC........CBBBBBBBB.......BBBBBBBB...............BBBBBBBBB................B.......AAAAAAAAAAAAAAAAAAAAAAAAAAAAA.........",
".........BBBBBBBBBBBBBBBBBBBBBBBBBBBBB.......CBBBBBBBBB.......BBBBBBBBBC.........CBBBBBBBB......................BBBBBBBB........BBBBBBBBBB........BBBBBBBBB.......BBBBBBBB...............CBBBBBBBBB............CBBB........AAAAAAAAAAAAAAAAAAAAAAAAAAAAA........",
"........BBBBBBBBBBBBBBBBBBBBBBBBBBBBB........BBBBBBBBB.........BBBBBBBBB.........CBBBBBBBBBBBBBBBBBBBBBBBB......BBBBBBBB........BBBBBBBBBBBC....CBBBBBBBBBC.......BBBBBBBB................BBBBBBBBBBC.......CBBBBBB.........AAAAAAAAAAAAAAAAAAAAAAAAAAAAA.......",
".......BBBBBBBBBBBBBBBBBBBBBBBBBBBBB........BBBBBBBBB...........BBBBBBBBB........CBBBBBBBBBBBBBBBBBBBBBBBB......BBBBBBBB........BBBBBBBBBBBBBBBBBBBBBBBBBB........BBBBBBBB................CBBBBBBBBBBBBBBBBBBBBBBBB..........AAAAAAAAAAAAAAAAAAAAAAAAAAAAA......",
"......BBBBBBBBBBBBBBBBBBBBBBBBBBBBB........CBBBBBBBBB...........BBBBBBBBBC.......CBBBBBBBBBBBBBBBBBBBBBBBB......BBBBBBBB........BBBBBBBBCBBBBBBBBBBBBBBBB.........BBBBBBBB.................CBBBBBBBBBBBBBBBBBBBBBBB...........AAAAAAAAAAAAAAAAAAAAAAAAAAAAA.....",
".....BBBBBBBBBBBBBBBBBBBBBBBBBBBBB.........BBBBBBBBB.............BBBBBBBBB.......CBBBBBBBBBBBBBBBBBBBBBBBB......BBBBBBBB........BBBBBBBB..BBBBBBBBBBBBBBC.........BBBBBBBB..................CBBBBBBBBBBBBBBBBBBBBBB............AAAAAAAAAAAAAAAAAAAAAAAAAAAAA....",
"....BBBBBBBBBBBBBBBBBBBBBBBBBBBBB.........BBBBBBBBB...............BBBBBBBBB......CBBBBBBBBBBBBBBBBBBBBBBBB......BBBBBBBB........BBBBBBBB...BBBBBBBBBBBBC..........BBBBBBBB....................BBBBBBBBBBBBBBBBBBBC..............AAAAAAAAAAAAAAAAAAAAAAAAAAAAA...",
"...BBBBBBBBBBBBBBBBBBBBBBBBBBBBB.........BBBBBBBBBC...............CBBBBBBBBC.....CBBBBBBBBBBBBBBBBBBBBBBBB......BBBBBBBB........BBBBBBBB....BBBBBBBBBB............BBBBBBBB.....................CBBBBBBBBBBBBBBBC.................AAAAAAAAAAAAAAAAAAAAAAAAAAAAA..",
"..BBBBBBBBBBBBBBBBBBBBBBBBBBBBB...............................................................................................................CBBBBC..............................................CCBBBBBBBC......................AAAAAAAAAAAAAAAAAAAAAAAAAAAAA.",
".BBBBBBBBBBBBBBBBBBBBBBBBBBBBB.....................................................................................................................................................................................................AAAAAAAAAAAAAAAAAAAAAAAAAAAAA",
"BBBBBBBBBBBBBBBBBBBBBBBBBBBBB.......................................................................................................................................................................................................AAAAAAAAAAAAAAAAAAAAAAAAAAAA",
"BBBBBBBBBBBBBBBBBBBBBBBBBBBB.........................................................................................................................................................................................................AAAAAAAAAAAAAAAAAAAAAAAAAAA",
"BBBBBBBBBBBBBBBBBBBBBBBBBBB...........................................................................................................................................................................................................AAAAAAAAAAAAAAAAAAAAAAAAAA",
"BBBBBBBBBBBBBBBBBBBBBBBBBB.............................................................................................................................................................................................................AAAAAAAAAAAAAAAAAAAAAAAAA",
"BBBBBBBBBBBBBBBBBBBBBBBBB...............................................................................................................................................................................................................AAAAAAAAAAAAAAAAAAAAAAAA",
"BBBBBBBBBBBBBBBBBBBBBBBB.................................................................................................................................................................................................................AAAAAAAAAAAAAAAAAAAAAAA",
"BBBBBBBBBBBBBBBBBBBBBBB...................................................................................................................................................................................................................AAAAAAAAAAAAAAAAAAAAAA",
"BBBBBBBBBBBBBBBBBBBBBB.....................................................................................................................................................................................................................AAAAAAAAAAAAAAAAAAAAA",
"BBBBBBBBBBBBBBBBBBBBB.......................................................................................................................................................................................................................AAAAAAAAAAAAAAAAAAAA",
"BBBBBBBBBBBBBBBBBBBB.........................................................................................................................................................................................................................AAAAAAAAAAAAAAAAAAA",
"BBBBBBBBBBBBBBBBBBB...........................................................................................................................................................................................................................AAAAAAAAAAAAAAAAAA",
"BBBBBBBBBBBBBBBBBB.............................................................................................................................................................................................................................AAAAAAAAAAAAAAAAA",
"BBBBBBBBBBBBBBBBB...............................................................................................................................................................................................................................AAAAAAAAAAAAAAAA",
"BBBBBBBBBBBBBBBB.................................................................................................................................................................................................................................AAAAAAAAAAAAAAA",
};
